<?xml version="1.0" encoding="UTF-8"?>
<map version="1.10" tiledversion="1.12.2" orientation="orthogonal" renderorder="right-down" width="50" height="30" tilewidth="32" tileheight="32" infinite="0" nextlayerid="23" nextobjectid="23">
 <editorsettings>
  <export target="../public/assets/game/maps/hub.tmj" format="json"/>
 </editorsettings>
 <tileset firstgid="1" source="terrain.tsx"/>
 <tileset firstgid="737" source="city_props.tsx"/>
 <tileset firstgid="7905" source="city_terrain2.tsx"/>
 <tileset firstgid="13982" source="garden_fountain_3.tsx"/>
 <tileset firstgid="14090" source="garden.tsx"/>
 <tileset firstgid="20362" source="character_postman_3.tsx"/>
 <tileset firstgid="22699" source="dog_german_shepherd_dark_brown.tsx"/>
 <objectgroup id="9" name="Collision">
  <object id="3" x="512.5" y="67.8333" width="172" height="156"/>
 </objectgroup>
 <objectgroup id="11" name="Interactions">
  <object id="16" name="to-surface-selection" x="714.5" y="84" width="205" height="136">
   <properties>
    <property name="interactionType" value="transition"/>
    <property name="targetScene" value="SurfaceSelectionScene"/>
    <property name="targetSpawn" value="from-hub"/>
   </properties>
  </object>
  <object id="17" name="to-zone-02" x="1389.33" y="440" width="181.333" height="185.333">
   <properties>
    <property name="interactionType" value="transition"/>
    <property name="targetScene" value="Zone02Scene"/>
    <property name="targetSpawn" value="from-hub"/>
   </properties>
  </object>
  <object id="18" name="to-zone-03" x="66.6663" y="442.667" width="213.333" height="177.333">
   <properties>
    <property name="interactionType" value="transition"/>
    <property name="targetScene" value="Zone03Scene"/>
    <property name="targetSpawn" value="from-hub"/>
   </properties>
  </object>
 </objectgroup>
 <objectgroup id="8" name="SpawnPoints">
  <object id="1" name="player-start" x="818" y="669.333">
   <point/>
  </object>
  <object id="6" name="from-surface-selection" x="821.5" y="283.834">
   <point/>
  </object>
  <object id="9" x="1010.67" y="628">
   <point/>
  </object>
  <object id="10" x="655.667" y="826.333">
   <point/>
  </object>
  <object id="11" x="261.333" y="638.667">
   <point/>
  </object>
  <object id="12" name="from-zone-02" x="1320.67" y="540">
   <point/>
  </object>
  <object id="13" name="from-zone-03" x="348.333" y="532.001">
   <point/>
  </object>
 </objectgroup>
 <group id="4" name="Entities"/>
 <group id="2" name="Terrain">
  <layer id="1" name="Ground" width="50" height="30">
   <data encoding="csv">
8171,8172,8173,8174,8175,8171,8172,8173,8174,8175,8171,8172,8173,8174,8175,8171,8172,8173,8174,8175,8171,8172,8173,8174,8175,8171,8172,8173,8174,8175,8171,8172,8173,8174,8175,8171,8172,8173,8174,8175,8171,8172,8173,8174,8175,8171,8172,8173,8174,8175,
8230,8231,8232,8233,8234,8230,8231,8232,8233,8234,8230,8231,8232,8233,8234,8230,8231,8232,8233,8234,8230,8231,8232,8233,8234,8230,8231,8232,8233,8234,8230,8231,8232,8233,8234,8230,8231,8232,8233,8234,8230,8231,8232,8233,8234,8230,8231,8232,8233,8234,
8289,8290,8291,8292,8293,8289,8290,8291,8292,8293,8289,8290,8291,8292,8293,8289,8290,8291,8292,8293,8289,8290,8291,8292,8293,8289,8290,8291,8292,8293,8289,8290,8291,8292,8293,8289,8290,8291,8292,8293,8289,8290,8291,8292,8293,8289,8290,8291,8292,8293,
8348,8349,8350,8351,8352,8348,8349,8350,8351,8352,8348,8349,8350,8351,8352,8348,8349,8350,8351,8352,8348,8349,8350,8351,8352,8348,8349,8350,8351,8352,8348,8349,8350,8351,8352,8348,8349,8350,8351,8352,8348,8349,8350,8351,8352,8348,8349,8350,8351,8352,
8171,8172,8173,8174,8175,8171,8172,8173,8174,8175,8171,8172,8173,8174,8175,8171,8172,8173,8174,8175,8171,8172,8173,8174,8175,8171,8172,8173,8174,8175,8171,8172,8173,8174,8175,8171,8172,8173,8174,8175,8171,8172,8173,8174,8175,8171,8172,8173,8174,8175,
8230,8231,8232,8233,8234,8230,8231,8232,8233,8234,8230,8231,8232,8233,8234,8230,8231,8232,8233,8234,8230,8231,8232,8233,8234,8230,8231,8232,8233,8234,8230,8231,8232,8233,8234,8230,8231,8232,8233,8234,8230,8231,8232,8233,8234,8230,8231,8232,8233,8234,
8289,8290,8291,8292,8293,8289,8290,8291,8292,8293,8289,8290,8291,8292,8293,8289,8290,8291,8292,8293,8289,8290,8291,8292,8293,8289,8290,8291,8292,8293,8289,8290,8291,8292,8293,8289,8290,8291,8292,8293,8289,8290,8291,8292,8293,8289,8290,8291,8292,8293,
8348,8349,8350,8351,8352,8348,8349,8350,8351,8352,8348,8349,8350,8351,8352,8348,8349,8350,8351,8352,8348,8349,8350,8351,8352,8348,8349,8350,8351,8352,8348,8349,8350,8351,8352,8348,8349,8350,8351,8352,8348,8349,8350,8351,8352,8348,8349,8350,8351,8352,
8171,8172,8173,8174,8175,8171,8172,8173,8174,8175,8171,8172,8173,8174,8175,8171,8172,8173,8174,8175,8171,8172,8173,8174,8175,8171,8172,8173,8174,8175,8171,8172,8173,8174,8175,8171,8172,8173,8174,8175,8171,8172,8173,8174,8175,8171,8172,8173,8174,8175,
8230,8231,8232,8233,8234,8230,8231,8232,8233,8234,8230,8231,8232,8233,8234,8230,8231,8232,8233,8234,8230,8231,8232,8233,8234,8230,8231,8232,8233,8234,8230,8231,8232,8233,8234,8230,8231,8232,8233,8234,8230,8231,8232,8233,8234,8230,8231,8232,8233,8234,
8289,8290,8291,8292,8293,8289,8290,8291,8292,8293,8289,8290,8291,8292,8293,8289,8290,8291,8292,8293,8289,8290,8291,8292,8293,8289,8290,8291,8292,8293,8289,8290,8291,8292,8293,8289,8290,8291,8292,8293,8289,8290,8291,8292,8293,8289,8290,8291,8292,8293,
8348,8349,8350,8351,8352,8348,8349,8350,8351,8352,8348,8349,8350,8351,8352,8348,8349,8350,8351,8352,8348,8349,8350,8351,8352,8348,8349,8350,8351,8352,8348,8349,8350,8351,8352,8348,8349,8350,8351,8352,8348,8349,8350,8351,8352,8348,8349,8350,8351,8352,
8171,8172,8173,8174,8175,8171,8172,8173,8174,8175,8171,8172,8173,8174,8175,8171,8172,8173,8174,8175,8171,8172,8173,8174,8175,8171,8172,8173,8174,8175,8171,8172,8173,8174,8175,8171,8172,8173,8174,8175,8171,8172,8173,8174,8175,8171,8172,8173,8174,8175,
8230,8231,8232,8233,8234,8230,8231,8232,8233,8234,8230,8231,8232,8233,8234,8230,8231,8232,8233,8234,8230,8231,8232,8233,8234,8230,8231,8232,8233,8234,8230,8231,8232,8233,8234,8230,8231,8232,8233,8234,8230,8231,8232,8233,8234,8230,8231,8232,8233,8234,
8289,8290,8291,8292,8293,8289,8290,8291,8292,8293,8289,8290,8291,8292,8293,8289,8290,8291,8292,8293,8289,8290,8291,8292,8293,8289,8290,8291,8292,8293,8289,8290,8291,8292,8293,8289,8290,8291,8292,8293,8289,8290,8291,8292,8293,8289,8290,8291,8292,8293,
8348,8349,8350,8351,8352,8348,8349,8350,8351,8352,8348,8349,8350,8351,8352,8348,8349,8350,8351,8352,8348,8349,8350,8351,8352,8348,8349,8350,8351,8352,8348,8349,8350,8351,8352,8348,8349,8350,8351,8352,8348,8349,8350,8351,8352,8348,8349,8350,8351,8352,
8171,8172,8173,8174,8175,8171,8172,8173,8174,8175,8171,8172,8173,8174,8175,8171,8172,8173,8174,8175,8171,8172,8173,8174,8175,8171,8172,8173,8174,8175,8171,8172,8173,8174,8175,8171,8172,8173,8174,8175,8171,8172,8173,8174,8175,8171,8172,8173,8174,8175,
8230,8231,8232,8233,8234,8230,8231,8232,8233,8234,8230,8231,8232,8233,8234,8230,8231,8232,8233,8234,8230,8231,8232,8233,8234,8230,8231,8232,8233,8234,8230,8231,8232,8233,8234,8230,8231,8232,8233,8234,8230,8231,8232,8233,8234,8230,8231,8232,8233,8234,
8289,8290,8291,8292,8293,8289,8290,8291,8292,8293,8289,8290,8291,8292,8293,8289,8290,8291,8292,8293,8289,8290,8291,8292,8293,8289,8290,8291,8292,8293,8289,8290,8291,8292,8293,8289,8290,8291,8292,8293,8289,8290,8291,8292,8293,8289,8290,8291,8292,8293,
8348,8349,8350,8351,8352,8348,8349,8350,8351,8352,8348,8349,8350,8351,8352,8348,8349,8350,8351,8352,8348,8349,8350,8351,8352,8348,8349,8350,8351,8352,8348,8349,8350,8351,8352,8348,8349,8350,8351,8352,8348,8349,8350,8351,8352,8348,8349,8350,8351,8352,
8171,8172,8173,8174,8175,8171,8172,8173,8174,8175,8171,8172,8173,8174,8175,8171,8172,8173,8174,8175,8171,8172,8173,8174,8175,8171,8172,8173,8174,8175,8171,8172,8173,8174,8175,8171,8172,8173,8174,8175,8171,8172,8173,8174,8175,8171,8172,8173,8174,8175,
8230,8231,8232,8233,8234,8230,8231,8232,8233,8234,8230,8231,8232,8233,8234,8230,8231,8232,8233,8234,8230,8231,8232,8233,8234,8230,8231,8232,8233,8234,8230,8231,8232,8233,8234,8230,8231,8232,8233,8234,8230,8231,8232,8233,8234,8230,8231,8232,8233,8234,
8289,8290,8291,8292,8293,8289,8290,8291,8292,8293,8289,8290,8291,8292,8293,8289,8290,8291,8292,8293,8289,8290,8291,8292,8293,8289,8290,8291,8292,8293,8289,8290,8291,8292,8293,8289,8290,8291,8292,8293,8289,8290,8291,8292,8293,8289,8290,8291,8292,8293,
8348,8349,8350,8351,8352,8348,8349,8350,8351,8352,8348,8349,8350,8351,8352,8348,8349,8350,8351,8352,8348,8349,8350,8351,8352,8348,8349,8350,8351,8352,8348,8349,8350,8351,8352,8348,8349,8350,8351,8352,8348,8349,8350,8351,8352,8348,8349,8350,8351,8352,
8171,8172,8173,8174,8175,8171,8172,8173,8174,8175,8171,8172,8173,8174,8175,8171,8172,8173,8174,8175,8171,8172,8173,8174,8175,8171,8172,8173,8174,8175,8171,8172,8173,8174,8175,8171,8172,8173,8174,8175,8171,8172,8173,8174,8175,8171,8172,8173,8174,8175,
8230,8231,8232,8233,8234,8230,8231,8232,8233,8234,8230,8231,8232,8233,8234,8230,8231,8232,8233,8234,8230,8231,8232,8233,8234,8230,8231,8232,8233,8234,8230,8231,8232,8233,8234,8230,8231,8232,8233,8234,8230,8231,8232,8233,8234,8230,8231,8232,8233,8234,
8289,8290,8291,8292,8293,8289,8290,8291,8292,8293,8289,8290,8291,8292,8293,8289,8290,8291,8292,8293,8289,8290,8291,8292,8293,8289,8290,8291,8292,8293,8289,8290,8291,8292,8293,8289,8290,8291,8292,8293,8289,8290,8291,8292,8293,8289,8290,8291,8292,8293,
8348,8349,8350,8351,8352,8348,8349,8350,8351,8352,8348,8349,8350,8351,8352,8348,8349,8350,8351,8352,8348,8349,8350,8351,8352,8348,8349,8350,8351,8352,8348,8349,8350,8351,8352,8348,8349,8350,8351,8352,8348,8349,8350,8351,8352,8348,8349,8350,8351,8352,
8171,8172,8173,8174,8175,8171,8172,8173,8174,8175,8171,8172,8173,8174,8175,8171,8172,8173,8174,8175,8171,8172,8173,8174,8175,8171,8172,8173,8174,8175,8171,8172,8173,8174,8175,8171,8172,8173,8174,8175,8171,8172,8173,8174,8175,8171,8172,8173,8174,8175,
8230,8231,8232,8233,8234,8230,8231,8232,8233,8234,8230,8231,8232,8233,8234,8230,8231,8232,8233,8234,8230,8231,8232,8233,8234,8230,8231,8232,8233,8234,8230,8231,8232,8233,8234,8230,8231,8232,8233,8234,8230,8231,8232,8233,8234,8230,8231,8232,8233,8234
</data>
  </layer>
  <layer id="18" name="Side_Walk" width="50" height="30">
   <data encoding="csv">
7995,7995,7995,7995,7995,7995,7995,7995,7995,7995,7995,7995,7995,7995,7995,7995,7995,7995,7995,7995,7995,7995,7996,0,0,0,0,0,7994,7995,7995,7995,7995,7995,7995,7995,7995,7995,7995,7995,7995,7995,7995,7995,7995,7995,7995,7995,7995,7995,
7995,7995,7995,7995,7995,7995,7995,7995,7995,7995,7995,7995,7995,7995,7995,7995,7995,7995,7995,7995,7995,7995,7996,0,0,0,0,0,7994,7995,7995,7995,7995,7995,7995,7995,7995,7995,7995,7995,7995,7995,7995,7995,7995,7995,7995,7995,7995,7995,
7995,7995,7995,7995,7995,7995,7995,7995,7995,7995,7995,7995,7995,7995,7995,7995,7995,7995,7995,7995,7995,7995,7996,0,0,0,0,0,7994,7995,7995,7995,7995,7995,7995,7995,7995,7995,7995,7995,7995,7995,7995,7995,7995,7995,7995,7995,7995,7995,
7995,7995,7995,7995,7995,7995,7995,7995,7995,7995,7995,7995,7995,7995,7995,7995,7995,7995,7995,7995,7995,7995,7996,0,0,0,0,0,7994,7995,7995,7995,7995,7995,7995,7995,7995,7995,7995,7995,7995,7995,7995,7995,7995,7995,7995,7995,7995,7995,
7995,7995,7995,7995,7995,7995,7995,7995,7995,7995,7995,7995,7995,7995,7995,7995,7995,7995,7995,7995,7995,7995,7996,0,0,0,0,0,7994,7995,7995,7995,7995,7995,7995,7995,7995,7995,7995,7995,7995,7995,7995,7995,7995,7995,7995,7995,7995,7995,
7995,7995,7995,7995,7995,7995,7995,7995,7995,7995,7995,7995,7995,7995,7995,7995,7995,7995,7995,7995,7995,7995,7996,0,0,0,0,0,7994,7995,7995,7995,7995,7995,7995,7995,7995,7995,7995,7995,7995,7995,7995,7995,7995,7995,7995,7995,7995,7995,
7995,7995,7995,7995,7995,7995,7995,7995,7995,7995,7995,7995,7995,7995,7995,7995,7995,7995,7995,7995,7995,7995,7996,0,0,0,0,0,7994,7995,7995,7995,7995,7995,7995,7995,7995,7995,7995,7995,7995,7995,7995,7995,7995,7995,7995,7995,7995,7995,
7995,7995,7995,7995,7995,7995,7995,7995,7995,7995,7995,7995,7995,7995,7995,7995,7995,7995,7995,7995,7995,7995,7996,0,0,0,0,0,7994,7995,7995,7995,7995,7995,7995,7995,7995,7995,7995,7995,7995,7995,7995,7995,7995,7995,7995,7995,7995,7995,
7995,7995,7995,7995,7995,7995,7995,7995,7995,7995,7995,7995,7995,7995,7995,7995,7995,7995,7995,7995,7995,7995,7996,0,0,0,0,0,7994,7995,7995,7995,7995,7995,7995,7995,7995,7995,7995,7995,7995,7995,7995,7995,7995,7995,7995,7995,7995,7995,
7995,7995,7995,7995,7995,7995,7995,7995,7995,7998,8054,8054,8054,8054,8054,8054,8054,8054,8054,8054,8054,8054,8055,0,0,0,0,0,8053,8054,8054,8054,8054,8054,8054,8054,8054,8054,8054,8054,7997,7995,7995,7995,7995,7995,7995,7995,7995,7995,
7995,7995,7995,7995,7995,7995,7995,7995,7995,7996,0,0,0,0,0,0,0,0,0,0,0,0,0,0,0,0,0,0,0,0,0,0,0,0,0,0,0,0,0,0,7994,7995,7995,7995,7995,7995,7995,7995,7995,7995,
7995,7995,7995,7995,7995,7995,7995,7995,7995,7996,0,0,0,0,0,0,0,0,0,0,0,0,0,0,0,0,0,0,0,0,0,0,0,0,0,0,0,0,0,0,7994,7995,7995,7995,7995,7995,7995,7995,7995,7995,
7995,7995,7995,7995,7995,7995,7995,7995,7995,7996,0,0,0,0,0,0,0,0,0,0,0,0,0,0,0,0,0,0,0,0,0,0,0,0,0,0,0,0,0,0,7994,7995,7995,7995,7995,7995,7995,7995,7995,7995,
8054,8054,8054,8054,8054,8054,8054,8054,8054,8055,0,0,0,0,0,0,0,0,0,0,0,0,0,0,0,0,0,0,0,0,0,0,0,0,0,0,0,0,0,0,8053,8054,8054,8054,8054,8054,8054,8054,8054,8054,
0,0,0,0,0,0,0,0,0,0,0,0,0,0,0,0,0,0,0,0,0,0,0,0,0,0,0,0,0,0,0,0,0,0,0,0,0,0,0,0,0,0,0,0,0,0,0,0,0,0,
0,0,0,0,0,0,0,0,0,0,0,0,0,0,0,7935,7936,7936,7936,7936,7936,7936,7936,7936,7936,7936,7936,7936,7936,7936,7936,7936,7936,7936,7937,0,0,0,0,0,0,0,0,0,0,0,0,0,0,0,
0,0,0,0,0,0,0,0,0,0,0,0,0,0,0,7994,7995,7995,7995,7995,7995,7995,7995,7995,7995,7995,7995,7995,7995,7995,7995,7995,7995,7995,7996,0,0,0,0,0,0,0,0,0,0,0,0,0,0,0,
0,0,0,0,0,0,0,0,0,0,0,0,0,0,0,7994,7995,7995,7995,7995,7995,7995,7995,7995,7995,7995,7995,7995,7995,7995,7995,7995,7995,7995,7996,0,0,0,0,0,0,0,0,0,0,0,0,0,0,0,
0,0,0,0,0,0,0,0,0,0,0,0,0,0,0,7994,7995,7995,7995,7995,7995,7995,7995,7995,7995,7995,7995,7995,7995,7995,7995,7995,7995,7995,7996,0,0,0,0,0,0,0,0,0,0,0,0,0,0,0,
7936,7936,7936,7936,7936,7936,7936,7936,7936,7937,0,0,0,0,0,7994,7995,7995,7995,7995,7995,7995,7995,7995,7995,7995,7995,7995,7995,7995,7995,7995,7995,7995,7996,0,0,0,0,0,7935,7936,7936,7936,7936,7936,7936,7936,7936,7936,
7995,7995,7995,7995,7995,7995,7995,7995,7995,7996,0,0,0,0,0,7994,7995,7995,7995,7995,7995,7995,7995,7995,7995,7995,7995,7995,7995,7995,7995,7995,7995,7995,7996,0,0,0,0,0,7994,7995,7995,7995,7995,7995,7995,7995,7995,7995,
7995,7995,7995,7995,7995,7995,7995,7995,7995,7996,0,0,0,0,0,7994,7995,7995,7995,7995,7995,7995,7995,7995,7995,7995,7995,7995,7995,7995,7995,7995,7995,7995,7996,0,0,0,0,0,7994,7995,7995,7995,7995,7995,7995,7995,7995,7995,
7995,7995,7995,7995,7995,7995,7995,7995,7995,7996,0,0,0,0,0,7994,7995,7995,7995,7995,7995,7995,7995,7995,7995,7995,7995,7995,7995,7995,7995,7995,7995,7995,7996,0,0,0,0,0,7994,7995,7995,7995,7995,7995,7995,7995,7995,7995,
7995,7995,7995,7995,7995,7995,7995,7995,7995,7996,0,0,0,0,0,7994,7995,7995,7995,7995,7995,7995,7995,7995,7995,7995,7995,7995,7995,7995,7995,7995,7995,7995,7996,0,0,0,0,0,7994,7995,7995,7995,7995,7995,7995,7995,7995,7995,
7995,7995,7995,7995,7995,7995,7995,7995,7995,7996,0,0,0,0,0,7994,7995,7995,7995,7995,7995,7995,7995,7995,7995,7995,7995,7995,7995,7995,7995,7995,7995,7995,7996,0,0,0,0,0,7994,7995,7995,7995,7995,7995,7995,7995,7995,7995,
7995,7995,7995,7995,7995,7995,7995,7995,7995,7996,0,0,0,0,0,7994,7995,7995,7995,7995,7995,7995,7995,7995,7995,7995,7995,7995,7995,7995,7995,7995,7995,7995,7996,0,0,0,0,0,7994,7995,7995,7995,7995,7995,7995,7995,7995,7995,
7995,7995,7995,7995,7995,7995,7995,7995,7995,7996,0,0,0,0,0,7994,7995,7995,7995,7995,7995,7995,7995,7995,7995,7995,7995,7995,7995,7995,7995,7995,7995,7995,7996,0,0,0,0,0,7994,7995,7995,7995,7995,7995,7995,7995,7995,7995,
7995,7995,7995,7995,7995,7995,7995,7995,7995,7996,0,0,0,0,0,7994,7995,7995,7995,7995,7995,7995,7995,7995,7995,7995,7995,7995,7995,7995,7995,7995,7995,7995,7996,0,0,0,0,0,7994,7995,7995,7995,7995,7995,7995,7995,7995,7995,
7995,7995,7995,7995,7995,7995,7995,7995,7995,7996,0,0,0,0,0,7994,7995,7995,7995,7995,7995,7995,7995,7995,7995,7995,7995,7995,7995,7995,7995,7995,7995,7995,7996,0,0,0,0,0,7994,7995,7995,7995,7995,7995,7995,7995,7995,7995,
7995,7995,7995,7995,7995,7995,7995,7995,7995,7996,0,0,0,0,0,7994,7995,7995,7995,7995,7995,7995,7995,7995,7995,7995,7995,7995,7995,7995,7995,7995,7995,7995,7996,0,0,0,0,0,7994,7995,7995,7995,7995,7995,7995,7995,7995,7995
</data>
  </layer>
 </group>
 <group id="12" name="Structures">
  <layer id="22" name="Props_02" width="50" height="30">
   <data encoding="csv">
0,0,0,0,0,0,0,0,0,0,0,0,0,0,0,0,0,0,0,0,0,0,0,0,0,0,0,0,0,0,0,0,0,0,0,0,0,0,0,0,0,0,0,0,0,0,0,0,0,0,
0,0,0,0,0,0,0,0,0,0,0,0,0,0,0,0,0,0,0,0,0,0,0,0,0,0,0,0,0,0,0,0,0,0,0,0,0,0,0,0,0,0,0,0,0,0,0,0,0,0,
0,0,0,0,0,0,0,0,0,0,0,0,0,0,0,0,0,0,0,0,0,0,0,0,0,0,0,0,0,0,0,0,0,0,0,0,0,0,0,0,0,0,0,0,0,0,0,0,0,0,
0,0,0,0,0,0,0,0,0,0,0,0,0,0,0,0,0,0,0,0,0,0,0,0,0,0,0,0,0,0,0,0,0,0,0,0,0,0,0,0,0,0,0,0,0,0,0,0,0,0,
0,0,0,0,0,0,0,0,0,0,0,0,0,0,0,0,0,0,0,0,0,0,0,0,0,0,0,0,0,0,0,0,0,0,0,0,0,0,0,0,0,0,0,0,0,0,0,0,0,0,
0,0,0,0,0,0,0,0,0,0,0,0,0,0,0,0,0,0,0,0,0,0,0,0,0,0,0,0,0,0,0,0,0,0,0,0,0,0,0,0,0,0,0,0,0,0,0,0,0,0,
0,0,0,0,0,0,0,0,0,0,0,0,0,0,0,0,0,0,0,0,0,0,0,0,0,0,0,0,0,0,0,0,0,0,0,0,0,0,0,0,0,0,0,0,0,0,0,0,0,0,
0,0,0,0,0,0,0,0,0,0,0,0,0,0,0,0,0,0,0,0,0,0,0,0,0,0,0,0,0,0,0,0,0,0,0,0,0,0,0,0,0,0,0,0,0,0,0,0,0,0,
0,0,0,0,0,0,0,0,0,0,0,0,0,0,0,0,0,0,0,0,0,0,0,0,0,0,0,0,0,0,0,0,0,0,0,0,0,0,0,0,0,0,0,0,0,0,0,0,0,0,
0,0,0,0,0,0,0,0,0,0,0,0,0,0,0,0,0,0,0,0,0,0,0,0,0,0,0,0,0,0,0,0,0,0,0,0,0,0,0,0,0,0,0,0,0,0,0,0,0,0,
0,0,0,0,0,0,0,0,0,0,0,0,0,0,0,0,0,0,0,0,0,0,0,0,0,0,0,0,0,0,0,0,0,0,0,0,0,0,0,0,0,0,0,0,0,0,0,0,0,0,
0,0,0,0,0,0,0,0,0,0,0,0,0,0,0,0,0,0,0,0,0,0,0,0,0,0,0,0,0,0,0,0,0,0,0,0,0,0,0,0,0,0,0,0,0,0,0,0,0,0,
0,0,0,0,0,0,0,0,0,0,0,0,0,0,0,0,0,0,0,0,0,0,0,0,0,0,0,0,0,0,0,0,0,0,0,0,0,0,0,0,0,0,0,0,0,0,0,0,0,0,
0,0,0,0,0,0,0,0,0,0,0,0,0,0,0,0,0,0,0,0,0,0,0,0,0,0,0,0,0,0,0,0,0,0,0,0,0,0,0,0,0,0,0,0,0,0,0,0,0,0,
0,0,0,0,0,0,0,0,0,0,0,0,0,0,0,0,0,0,0,0,0,0,0,0,0,0,0,0,0,0,0,0,0,0,0,0,0,0,0,0,0,0,0,0,0,0,0,0,0,0,
0,0,0,0,0,0,0,0,0,0,0,0,0,0,0,0,0,0,0,0,0,0,0,0,0,0,0,0,0,0,0,0,0,0,0,0,0,0,0,0,0,0,0,0,0,0,0,0,0,0,
0,0,0,0,0,0,0,0,0,0,0,0,0,0,0,0,0,0,0,0,0,0,0,0,0,0,0,0,0,0,0,0,0,0,0,0,0,0,0,0,0,0,0,0,0,0,0,0,0,0,
0,0,0,0,0,0,0,0,0,0,0,0,0,0,0,0,0,0,0,0,0,0,0,0,0,0,0,0,0,0,0,0,0,0,0,0,0,0,0,0,0,0,0,0,0,0,0,0,0,0,
0,0,0,0,0,0,0,0,0,0,0,0,0,0,0,0,0,0,0,0,0,0,0,0,0,0,0,0,0,0,0,0,0,0,0,0,0,0,0,0,0,0,0,0,0,0,0,0,0,0,
0,0,0,0,0,0,0,0,0,0,0,0,0,0,0,0,0,0,0,0,0,0,0,0,0,0,0,0,0,0,0,0,0,0,0,0,0,0,0,0,0,0,0,0,0,0,0,0,0,0,
0,0,0,0,0,0,0,0,0,0,0,0,0,0,0,0,0,0,0,0,0,0,0,0,0,0,0,0,0,0,0,0,0,0,0,0,0,0,0,0,0,0,0,0,0,0,0,0,0,0,
0,0,0,0,0,0,0,0,0,0,0,0,0,0,0,0,0,0,0,0,0,0,0,0,0,0,0,0,0,0,0,0,0,0,0,0,0,0,0,0,0,0,0,0,0,0,0,0,0,0,
0,0,0,0,0,0,0,0,0,0,0,0,0,0,0,0,0,0,0,0,0,0,0,0,0,0,0,0,0,0,0,0,0,0,0,0,0,0,0,0,0,0,0,0,0,0,0,0,0,0,
0,0,0,0,0,0,0,0,0,0,0,0,0,0,0,0,0,0,0,0,0,0,0,0,0,0,14251,14252,14252,14252,14253,0,0,0,0,0,0,0,0,0,0,0,0,0,0,0,0,0,0,0,
0,0,0,0,0,0,0,0,0,0,0,0,0,0,0,0,0,0,0,14251,14252,14252,14252,14253,0,0,14283,0,0,0,14285,0,0,0,0,0,0,0,0,0,0,0,0,0,0,0,0,0,0,0,
0,0,0,0,0,0,0,0,0,0,0,0,0,0,0,0,0,0,0,14283,0,0,0,14285,0,0,14283,0,0,0,14285,0,0,0,0,0,0,0,0,0,0,0,0,0,0,0,0,0,0,0,
0,0,0,0,0,0,0,0,0,0,0,0,0,0,0,0,0,0,0,14283,0,0,0,14285,0,0,14283,0,0,0,14285,0,0,0,0,0,0,0,0,0,0,0,0,0,0,0,0,0,0,0,
0,0,0,0,0,0,0,0,0,0,0,0,0,0,0,0,0,0,0,14315,14316,14316,14316,14317,0,0,14315,14316,14316,14316,14317,0,0,0,0,0,0,0,0,0,0,0,0,0,0,0,0,0,0,0,
0,0,0,0,0,0,0,0,0,0,0,0,0,0,0,0,0,0,0,0,0,0,0,0,0,0,0,0,0,0,0,0,0,0,0,0,0,0,0,0,0,0,0,0,0,0,0,0,0,0,
0,0,0,0,0,0,0,0,0,0,0,0,0,0,0,0,0,0,0,0,0,0,0,0,0,0,0,0,0,0,0,0,0,0,0,0,0,0,0,0,0,0,0,0,0,0,0,0,0,0
</data>
  </layer>
  <layer id="19" name="Props" width="50" height="30">
   <data encoding="csv">
0,0,0,0,0,0,0,0,0,0,0,0,0,0,0,0,0,0,0,0,0,0,0,0,0,0,0,0,0,0,0,0,0,0,0,0,0,0,0,0,0,0,0,0,0,0,0,0,0,0,
0,0,0,0,0,0,0,0,0,0,0,0,0,0,0,0,0,0,0,0,0,0,0,0,0,0,0,0,0,0,0,0,0,0,0,0,0,0,0,0,0,0,0,0,0,0,0,0,0,0,
0,0,0,1692,1693,1694,0,753,754,0,0,0,0,755,756,0,0,0,0,0,0,0,0,0,0,0,0,0,0,0,0,0,0,0,0,753,754,0,0,0,0,755,756,0,1692,1693,1694,0,0,0,
0,0,0,1724,1725,1726,0,785,786,0,0,0,0,787,788,0,0,0,0,0,0,0,0,0,0,0,0,0,0,0,0,0,0,0,0,785,786,0,0,0,0,787,788,0,1724,1725,1726,0,0,0,
0,0,0,1756,1757,1758,0,817,822,823,824,822,823,824,820,0,0,0,0,0,0,0,0,0,0,0,0,0,0,0,0,0,1463,0,0,817,822,823,824,822,823,824,820,0,1756,1757,1758,0,0,0,
0,0,0,1788,1789,1790,0,849,854,855,856,854,855,856,852,0,0,0,0,0,0,0,0,0,0,0,0,0,0,0,0,0,1495,0,0,849,854,855,856,854,855,856,852,0,1788,1789,1790,0,0,0,
0,0,0,1820,1821,1822,0,0,0,0,0,0,0,0,0,0,0,0,0,0,0,0,0,0,0,0,0,0,0,0,0,0,0,0,0,0,0,0,0,0,0,0,0,0,1820,1821,1822,0,0,0,
0,0,0,0,0,0,0,0,0,0,0,0,0,0,0,0,0,0,0,0,0,0,0,0,0,0,0,0,0,0,0,0,0,0,0,0,0,0,0,0,0,0,0,0,0,0,0,0,0,0,
0,0,0,0,0,0,0,0,0,0,0,0,0,0,0,0,0,0,0,0,0,0,0,0,0,0,0,0,0,0,0,0,0,0,0,0,0,0,0,0,0,0,0,0,0,0,0,0,0,0,
0,0,0,0,0,0,0,0,0,0,0,0,0,0,0,0,0,0,0,0,0,0,0,0,0,0,0,0,0,0,0,0,0,0,0,0,0,0,0,0,0,0,0,0,0,0,0,0,0,0,
0,0,0,0,0,0,0,1554,0,0,0,0,0,0,0,0,0,0,0,0,0,0,0,0,0,0,0,0,0,0,0,0,0,0,0,0,0,0,0,0,0,0,1554,0,0,0,0,0,0,0,
0,0,0,0,0,0,0,1586,0,0,0,0,0,0,0,0,0,0,0,0,0,0,0,0,0,0,0,0,0,0,0,0,0,0,0,0,0,0,0,0,0,0,1586,0,0,0,0,0,0,0,
0,0,0,0,0,0,0,0,0,0,0,0,0,0,0,0,0,0,0,0,0,0,0,0,0,0,0,0,0,0,0,0,0,0,0,0,0,0,0,0,0,0,0,0,0,0,0,0,0,0,
0,0,0,0,0,0,0,0,0,0,0,0,0,0,0,0,0,0,0,0,0,0,0,0,0,0,0,0,0,0,0,0,0,0,0,0,0,0,0,0,0,0,0,0,0,0,0,0,0,0,
0,0,0,0,0,0,0,0,0,0,0,0,0,0,0,0,0,0,0,0,0,0,0,0,0,0,0,0,0,0,0,0,0,0,0,0,0,0,0,0,0,0,0,0,0,0,0,0,0,0,
0,0,0,0,0,0,0,0,0,0,0,0,0,0,0,0,0,0,0,0,0,0,0,0,0,0,0,0,0,0,0,0,0,0,0,0,0,0,0,0,0,0,0,0,0,0,0,0,0,0,
0,0,0,0,0,0,0,0,0,0,0,0,0,0,0,0,0,0,0,0,0,0,0,0,0,0,0,0,0,0,0,0,0,0,0,0,0,0,0,0,0,0,0,0,0,0,0,0,0,0,
0,0,0,0,0,0,0,0,0,0,0,0,0,0,0,0,0,0,0,0,0,0,0,0,0,0,0,0,0,0,0,0,0,0,0,0,0,0,0,0,0,0,0,0,0,0,0,0,0,0,
0,0,0,0,0,0,0,0,0,0,0,0,0,0,0,0,0,0,0,0,0,0,0,0,0,0,0,0,0,0,0,0,0,0,0,0,0,0,0,0,0,0,0,0,0,0,0,0,0,0,
0,0,0,0,0,0,0,0,0,0,0,0,0,0,0,0,0,0,0,0,0,0,0,0,0,0,0,0,0,0,0,0,0,0,0,0,0,0,0,0,0,0,0,0,0,0,0,0,0,0,
0,0,0,0,0,0,0,0,0,0,0,0,0,0,0,0,0,0,0,0,0,0,0,0,0,0,14730,14731,14732,14733,14734,0,0,0,0,0,0,0,0,0,0,0,0,0,0,0,0,0,0,0,
0,0,0,0,0,0,0,0,0,0,0,0,0,0,0,0,0,0,0,0,13982,13983,13984,0,0,0,14762,14763,14764,14765,14766,0,0,0,0,0,0,0,0,0,0,0,0,0,0,0,0,0,0,0,
0,0,0,0,0,0,0,0,0,0,0,0,0,0,0,0,0,0,0,0,14000,14001,14002,0,0,0,14794,14795,14796,14797,14798,0,0,0,0,0,0,0,0,0,0,0,0,0,0,0,0,0,0,0,
0,0,0,0,0,0,0,0,0,0,0,0,0,0,0,0,0,0,0,0,14018,14019,14020,0,0,0,14826,14827,14828,14829,14830,0,0,0,0,0,0,0,0,0,0,0,0,0,0,0,0,0,0,0,
0,0,0,0,0,0,0,0,0,0,0,0,0,0,0,0,0,0,0,0,14036,14037,14038,0,0,0,14858,14859,14860,14861,14862,0,0,0,0,0,0,0,0,0,0,0,0,0,0,0,0,0,0,0,
0,0,0,0,0,0,0,0,0,0,0,0,0,0,0,0,0,0,0,0,14054,14055,14056,0,0,0,14890,14891,14892,14893,14894,0,0,0,0,0,0,0,0,0,0,0,0,0,0,0,0,0,0,0,
0,0,0,0,0,0,0,0,0,0,0,0,0,0,0,0,0,0,0,0,14072,14073,14074,0,0,0,14922,14923,14924,14925,14926,0,0,0,0,0,0,0,0,0,0,0,0,0,0,0,0,0,0,0,
0,0,0,0,0,0,0,0,0,0,0,0,0,0,0,0,0,0,0,0,0,0,0,0,0,0,0,0,0,0,0,0,0,0,0,0,0,0,0,0,0,0,0,0,0,0,0,0,0,0,
0,0,0,0,0,0,0,0,0,0,0,0,0,0,0,0,0,0,0,0,0,0,0,0,0,0,0,0,0,0,0,0,0,0,0,0,0,0,0,0,0,0,0,0,0,0,0,0,0,0,
0,0,0,0,0,0,0,0,0,0,0,0,0,0,0,0,0,0,0,0,0,0,0,0,0,0,0,0,0,0,0,0,0,0,0,0,0,0,0,0,0,0,0,0,0,0,0,0,0,0
</data>
  </layer>
  <layer id="15" name="Buildings" width="50" height="30">
   <data encoding="csv">
0,0,0,0,0,0,0,0,0,0,0,0,0,0,0,0,0,0,0,0,0,0,0,0,0,0,0,0,0,0,0,0,0,0,0,0,0,0,0,0,0,0,0,0,0,0,0,0,0,0,
0,0,0,0,0,0,0,0,0,0,0,0,0,0,0,0,0,0,0,0,0,0,0,0,0,0,0,0,0,0,0,0,0,0,0,0,0,0,0,0,0,0,0,0,0,0,0,0,0,0,
0,0,0,0,0,0,0,0,0,0,0,0,0,0,0,0,3173,3174,3175,3176,3235,3236,0,0,0,0,0,0,0,0,0,0,0,0,0,0,0,0,0,0,0,0,0,0,0,0,0,0,0,0,
0,0,0,0,0,0,0,0,0,0,0,0,0,0,0,0,3205,3206,3207,3208,3267,3268,0,0,0,0,0,0,0,0,0,0,0,0,0,0,0,0,0,0,0,0,0,0,0,0,0,0,0,0,
0,0,0,0,0,0,0,0,0,0,0,0,0,0,0,0,3237,3238,3239,3240,3299,3300,0,0,0,0,0,0,0,0,0,0,0,0,0,0,0,0,0,0,0,0,0,0,0,0,0,0,0,0,
0,0,0,0,0,0,0,0,0,0,0,0,0,0,0,0,3269,3270,3271,3272,3331,3332,0,0,0,0,0,0,0,0,0,0,0,0,0,0,0,0,0,0,0,0,0,0,0,0,0,0,0,0,
0,0,0,0,0,0,0,0,0,0,0,0,0,0,0,0,3301,3302,3303,3304,3363,3364,0,0,0,0,0,0,0,0,0,0,0,0,0,0,0,0,0,0,0,0,0,0,0,0,0,0,0,0,
0,0,0,0,0,0,0,0,0,0,0,0,0,0,0,0,0,0,0,0,0,0,0,0,0,0,0,0,0,0,0,0,0,0,0,0,0,0,0,0,0,0,0,0,0,0,0,0,0,0,
0,0,0,0,0,0,0,0,0,0,0,0,0,0,0,0,0,0,0,0,0,0,0,0,0,0,0,0,0,0,0,0,0,0,0,0,0,0,0,0,0,0,0,0,0,0,0,0,0,0,
0,0,0,0,0,0,0,0,0,0,0,0,0,0,0,0,0,0,0,0,0,0,0,0,0,0,0,0,0,0,0,0,0,0,0,0,0,0,0,0,0,0,0,0,0,0,0,0,0,0,
0,0,0,0,0,0,0,0,0,0,0,0,0,0,0,0,0,0,0,0,0,0,0,0,0,0,0,0,0,0,0,0,0,0,0,0,0,0,0,0,0,0,0,0,0,0,0,0,0,0,
0,0,0,0,0,0,0,0,0,0,0,0,0,0,0,0,0,0,0,0,0,0,0,0,0,0,0,0,0,0,0,0,0,0,0,0,0,0,0,0,0,0,0,0,0,0,0,0,0,0,
0,0,0,0,0,0,0,0,0,0,0,0,0,0,0,0,0,0,0,0,0,0,0,0,0,0,0,0,0,0,0,0,0,0,0,0,0,0,0,0,0,0,0,0,0,0,0,0,0,0,
0,0,0,0,0,0,0,0,0,0,0,0,0,0,0,0,0,0,0,0,0,0,0,0,0,0,0,0,0,0,0,0,0,0,0,0,0,0,0,0,0,0,0,0,0,0,0,0,0,0,
0,0,0,0,0,0,0,0,0,0,0,0,0,0,0,0,0,0,0,0,0,0,0,0,0,0,0,0,0,0,0,0,0,0,0,0,0,0,0,0,0,0,0,0,0,0,0,0,0,0,
0,0,0,0,0,0,0,0,0,0,0,0,0,0,0,0,0,0,0,0,0,0,0,0,0,0,0,0,0,0,0,0,0,0,0,0,0,0,0,0,0,0,0,0,0,0,0,0,0,0,
0,0,0,0,0,0,0,0,0,0,0,0,0,0,0,0,0,0,0,0,0,0,0,0,0,0,0,0,0,0,0,0,0,0,0,0,0,0,0,0,0,0,0,0,0,0,0,0,0,0,
0,0,0,0,0,0,0,0,0,0,0,0,0,0,0,0,0,0,0,0,0,0,0,0,0,0,0,0,0,0,0,0,0,0,0,0,0,0,0,0,0,0,0,0,0,0,0,0,0,0,
0,0,0,0,0,0,0,0,0,0,0,0,0,0,0,0,0,0,0,0,0,0,0,0,0,0,0,0,0,0,0,0,0,0,0,0,0,0,0,0,0,0,0,0,0,0,0,0,0,0,
0,0,0,0,0,0,0,0,0,0,0,0,0,0,0,0,0,0,0,0,0,0,0,0,0,0,0,0,0,0,0,0,0,0,0,0,0,0,0,0,0,0,0,0,0,0,0,0,0,0,
0,0,1610615972,1610616004,1610616036,1610616068,1610616100,0,0,0,0,0,0,0,0,0,0,0,0,0,0,0,0,0,0,0,0,0,0,0,0,0,0,0,0,0,0,0,0,0,0,0,0,2684357923,2684357891,2684357859,2684357827,2684357795,0,0,
0,0,1610615971,1610616003,1610616035,1610616067,1610616099,0,0,0,0,0,0,0,0,0,0,0,0,0,0,0,0,0,0,0,0,0,0,0,0,0,0,0,0,0,0,0,0,0,0,0,0,2684357924,2684357892,2684357860,2684357828,2684357796,0,0,
0,0,1610615912,1610615944,1610615976,1610616008,1610616040,0,0,0,0,0,0,0,0,0,0,0,0,0,0,0,0,0,0,0,0,0,0,0,0,0,0,0,0,0,0,0,0,0,0,0,0,2684357861,2684357829,2684357797,2684357765,2684357733,0,0,
0,0,1610615911,1610615943,1610615975,1610616007,1610616039,0,0,0,0,0,0,0,0,0,0,0,0,0,0,0,0,0,0,0,0,0,0,0,0,0,0,0,0,0,0,0,0,0,0,0,0,2684357862,2684357830,2684357798,2684357766,2684357734,0,0,
0,0,1610615910,1610615942,1610615974,1610616006,1610616038,0,0,0,0,0,0,0,0,0,0,0,0,0,0,0,0,0,0,0,0,0,0,0,0,0,0,0,0,0,0,0,0,0,0,0,0,2684357863,2684357831,2684357799,2684357767,2684357735,0,0,
0,0,1610615909,1610615941,1610615973,1610616005,1610616037,0,0,0,0,0,0,0,0,0,0,0,0,0,0,0,0,0,0,0,0,0,0,0,0,0,0,0,0,0,0,0,0,0,0,0,0,2684357864,2684357832,2684357800,2684357768,2684357736,0,0,
0,0,0,0,0,0,0,0,0,0,0,0,0,0,0,0,0,0,0,0,0,0,0,0,0,0,0,0,0,0,0,0,0,0,0,0,0,0,0,0,0,0,0,0,0,0,0,0,0,0,
0,0,0,0,0,0,0,0,0,0,0,0,0,0,0,0,0,0,0,0,0,0,0,0,0,0,0,0,0,0,0,0,0,0,0,0,0,0,0,0,0,0,0,0,0,0,0,0,0,0,
0,0,0,0,0,0,0,0,0,0,0,0,0,0,0,0,0,0,0,0,0,0,0,0,0,0,0,0,0,0,0,0,0,0,0,0,0,0,0,0,0,0,0,0,0,0,0,0,0,0,
0,0,0,0,0,0,0,0,0,0,0,0,0,0,0,0,0,0,0,0,0,0,0,0,0,0,0,0,0,0,0,0,0,0,0,0,0,0,0,0,0,0,0,0,0,0,0,0,0,0
</data>
  </layer>
  <layer id="20" name="NPC" width="50" height="30">
   <data encoding="csv">
0,0,0,0,0,0,0,0,0,0,0,0,0,0,0,0,0,0,0,0,0,0,0,0,0,0,0,0,0,0,0,0,0,0,0,0,0,0,0,0,0,0,0,0,0,0,0,0,0,0,
0,0,0,0,0,0,0,0,0,0,0,0,0,0,0,0,0,0,0,0,0,0,0,0,0,0,0,0,0,0,0,0,0,0,0,0,0,0,0,0,0,0,0,0,0,0,0,0,0,0,
0,0,0,0,0,0,0,0,0,0,0,0,0,0,0,0,0,0,0,0,0,0,0,0,0,0,0,0,0,0,0,0,0,0,0,0,0,0,0,0,0,0,0,0,0,0,0,0,0,0,
0,0,0,0,0,0,0,0,0,0,0,0,0,0,0,0,0,0,0,0,0,0,0,0,0,0,0,0,0,0,0,0,0,0,0,0,0,0,0,0,0,0,0,0,0,0,0,0,0,0,
0,0,0,0,0,0,0,0,0,0,0,0,0,0,0,0,0,0,0,0,0,0,0,0,0,0,0,0,0,0,0,0,0,0,0,0,0,20494,0,0,0,0,0,0,0,0,0,0,0,0,
0,0,0,0,0,0,0,0,0,0,0,0,0,0,0,0,0,0,0,0,0,0,0,0,0,0,0,0,0,0,0,0,0,0,0,0,0,20551,0,0,0,0,0,0,0,0,0,0,0,0,
0,0,0,0,0,0,0,0,0,0,0,0,0,0,0,0,0,0,0,0,0,0,0,0,0,0,0,0,0,0,0,0,0,0,0,0,0,0,0,0,0,0,0,0,0,0,0,0,0,0,
0,0,0,0,0,0,0,0,0,0,0,0,0,0,0,0,0,0,0,0,0,23042,0,0,0,0,0,0,0,0,0,0,0,0,0,0,0,0,0,0,0,0,0,0,0,0,0,0,0,0,
0,0,0,0,0,0,0,0,0,0,0,0,0,0,0,0,0,0,0,0,0,23114,0,0,0,0,0,0,0,0,0,0,0,0,0,0,0,0,0,0,0,0,0,0,0,0,0,0,0,0,
0,0,0,0,0,0,0,0,0,0,0,0,0,0,0,0,0,0,0,0,0,0,0,0,0,0,0,0,0,0,0,0,0,0,0,0,0,0,0,0,0,0,0,0,0,0,0,0,0,0,
0,0,0,0,0,0,0,0,0,0,0,0,0,0,0,0,0,0,0,0,0,0,0,0,0,0,0,0,0,0,0,0,0,0,0,0,0,0,0,0,0,0,0,0,0,0,0,0,0,0,
0,0,0,0,0,0,0,0,0,0,0,0,0,0,0,0,0,0,0,0,0,0,0,0,0,0,0,0,0,0,0,0,0,0,0,0,0,0,0,0,0,0,0,0,0,0,0,0,0,0,
0,0,0,0,0,0,0,0,0,0,0,0,0,0,0,0,0,0,0,0,0,0,0,0,0,0,0,0,0,0,0,0,0,0,0,0,0,0,0,0,0,0,0,0,0,0,0,0,0,0,
0,0,0,0,0,0,0,0,0,0,0,0,0,0,0,0,0,0,0,0,0,0,0,0,0,0,0,0,0,0,0,0,0,0,0,0,0,0,0,0,0,0,0,0,0,0,0,0,0,0,
0,0,0,0,0,0,0,0,0,0,0,0,0,0,0,0,0,0,0,0,0,0,0,0,0,0,0,0,0,0,0,0,0,0,0,0,0,0,0,0,0,0,0,0,0,0,0,0,0,0,
0,0,0,0,0,0,0,0,0,0,0,0,0,0,0,0,0,0,0,0,0,0,0,0,0,0,0,0,0,0,0,0,0,0,0,0,0,0,0,0,0,0,0,0,0,0,0,0,0,0,
0,0,0,0,0,0,0,0,0,0,0,0,0,0,0,0,0,0,0,0,0,0,0,0,0,0,0,0,0,0,0,0,0,0,0,0,0,0,0,0,0,0,0,0,0,0,0,0,0,0,
0,0,0,0,0,0,0,0,0,0,0,0,0,0,0,0,0,0,0,0,0,0,0,0,0,0,0,0,0,0,0,0,0,0,0,0,0,0,0,0,0,0,0,0,0,0,0,0,0,0,
0,0,0,0,0,0,0,0,0,0,0,0,0,0,0,0,0,0,0,0,0,0,0,0,0,0,0,0,0,0,0,0,0,0,0,0,0,0,0,0,0,0,0,0,0,0,0,0,0,0,
0,0,0,0,0,0,0,0,0,0,0,0,0,0,0,0,0,0,0,0,0,0,0,0,0,0,0,0,0,0,0,0,0,0,0,0,0,0,0,0,0,0,0,0,0,0,0,0,0,0,
0,0,0,0,0,0,0,0,0,0,0,0,0,0,0,0,0,0,0,0,0,0,0,0,0,0,0,0,0,0,0,0,0,0,0,0,0,0,0,0,0,0,0,0,0,0,0,0,0,0,
0,0,0,0,0,0,0,0,0,0,0,0,0,0,0,0,0,0,0,0,0,0,0,0,0,0,0,0,0,0,0,0,0,0,0,0,0,0,0,0,0,0,0,0,0,0,0,0,0,0,
0,0,0,0,0,0,0,0,0,0,0,0,0,0,0,0,0,0,0,0,0,0,0,0,0,0,0,0,0,0,0,0,0,0,0,0,0,0,0,0,0,0,0,0,0,0,0,0,0,0,
0,0,0,0,0,0,0,0,0,0,0,0,0,0,0,0,0,0,0,0,0,0,0,0,0,0,0,0,0,0,0,0,0,0,0,0,0,0,0,0,0,0,0,0,0,0,0,0,0,0,
0,0,0,0,0,0,0,0,0,0,0,0,0,0,0,0,0,0,0,0,0,0,0,0,0,0,0,0,0,0,0,0,0,0,0,0,0,0,0,0,0,0,0,0,0,0,0,0,0,0,
0,0,0,0,0,0,0,0,0,0,0,0,0,0,0,0,0,0,0,0,0,0,0,0,0,0,0,0,0,0,0,0,0,0,0,0,0,0,0,0,0,0,0,0,0,0,0,0,0,0,
0,0,0,0,0,0,0,0,0,0,0,0,0,0,0,0,0,0,0,0,0,0,0,0,0,0,0,0,0,0,0,0,0,0,0,0,0,0,0,0,0,0,0,0,0,0,0,0,0,0,
0,0,0,0,0,0,0,0,0,0,0,0,0,0,0,0,0,0,0,0,0,0,0,0,0,0,0,0,0,0,0,0,0,0,0,0,0,0,0,0,0,0,0,0,0,0,0,0,0,0,
0,0,0,0,0,0,0,0,0,0,0,0,0,0,0,0,0,0,0,0,0,0,0,0,0,0,0,0,0,0,0,0,0,0,0,0,0,0,0,0,0,0,0,0,0,0,0,0,0,0,
0,0,0,0,0,0,0,0,0,0,0,0,0,0,0,0,0,0,0,0,0,0,0,0,0,0,0,0,0,0,0,0,0,0,0,0,0,0,0,0,0,0,0,0,0,0,0,0,0,0
</data>
  </layer>
 </group>
</map>
