<?xml version="1.0" encoding="UTF-8"?>
<map version="1.10" tiledversion="1.12.2" orientation="orthogonal" renderorder="right-down" width="50" height="30" tilewidth="32" tileheight="32" infinite="0" nextlayerid="12" nextobjectid="13">
 <editorsettings>
  <export target="../public/assets/game/maps/surface-selection.tmj" format="json"/>
 </editorsettings>
 <tileset firstgid="1" source="terrain.tsx"/>
 <tileset firstgid="737" source="city_props.tsx"/>
 <tileset firstgid="7905" source="city_terrain2.tsx"/>
 <tileset firstgid="13982" source="dog_german_shepherd_dark_brown.tsx"/>
 <tileset firstgid="15854" source="character_postman_1.tsx"/>
 <tileset firstgid="18191" source="character_postman_3.tsx"/>
 <objectgroup id="2" name="SpawnPoints">
  <object id="4" name="from-hub" x="816" y="730.333">
   <point/>
  </object>
  <object id="10" name="from-open-pit" x="520" y="357.333">
   <point/>
  </object>
  <object id="12" name="from-quarries" x="1101.33" y="358.667">
   <point/>
  </object>
 </objectgroup>
 <objectgroup id="3" name="Interactions">
  <object id="7" name="to-open-pit" x="409.334" y="113.333" width="234.667" height="144">
   <properties>
    <property name="interactionType" value="transition"/>
    <property name="targetScene" value="OpenPitScene"/>
    <property name="targetSpawn" value="from-surface-selection"/>
   </properties>
  </object>
  <object id="8" name="to-quarries" x="966.667" y="101.333" width="214.667" height="153.333">
   <properties>
    <property name="interactionType" value="transition"/>
    <property name="targetScene" value="QuarriesScene"/>
    <property name="targetSpawn" value="from-surface-selection"/>
   </properties>
  </object>
  <object id="9" name="to-hub" x="708.667" y="768.667" width="217.333" height="185.667">
   <properties>
    <property name="interactionType" value="transition"/>
    <property name="targetScene" value="HubScene"/>
    <property name="targetSpawn" value="from-surface-selection"/>
   </properties>
  </object>
 </objectgroup>
 <objectgroup id="4" name="Collision">
  <object id="1" x="221.333" y="112.667" width="170" height="146"/>
  <object id="2" x="1200.67" y="88.6667" width="172" height="172"/>
 </objectgroup>
 <group id="5" name="Terrain">
  <layer id="1" name="Ground" width="50" height="30">
   <data encoding="csv">
8171,8172,8173,8174,8175,8171,8172,8173,8174,8175,8171,8172,8173,8174,8175,8171,8172,8173,8174,8175,8171,8172,8173,8174,8175,8171,8172,8173,8174,8175,8171,8172,8173,8174,8175,8171,8172,8173,8174,8175,8171,8172,8173,8174,8175,8171,8172,8173,8174,8175,
8230,8231,8232,8233,8234,8230,8231,8232,8233,8234,8230,8231,8232,8233,8234,8230,8231,8232,8233,8234,8230,8231,8232,8233,8234,8230,8231,8232,8233,8234,8230,8231,8232,8233,8234,8230,8231,8232,8233,8234,8230,8231,8232,8233,8234,8230,8231,8232,8233,8234,
8289,8290,8291,8292,8293,8289,8290,8291,8292,8293,8289,8290,8291,8292,8293,8289,8290,8291,8292,8293,8289,8290,8291,8292,8293,8289,8290,8291,8292,8293,8289,8290,8291,8292,8293,8289,8290,8291,8292,8293,8289,8290,8291,8292,8293,8289,8290,8291,8292,8293,
8348,8349,8350,8351,8352,8348,8349,8350,8351,8352,8348,8349,8350,8351,8352,8348,8349,8350,8351,8352,8348,8349,8350,8351,8352,8348,8349,8350,8351,8352,8348,8349,8350,8351,8352,8348,8349,8350,8351,8352,8348,8349,8350,8351,8352,8348,8349,8350,8351,8352,
8171,8172,8173,8174,8175,8171,8172,8173,8174,8175,8171,8172,8173,8174,8175,8171,8172,8173,8174,8175,8171,8172,8173,8174,8175,8171,8172,8173,8174,8175,8171,8172,8173,8174,8175,8171,8172,8173,8174,8175,8171,8172,8173,8174,8175,8171,8172,8173,8174,8175,
8230,8231,8232,8233,8234,8230,8231,8232,8233,8234,8230,8231,8232,8233,8234,8230,8231,8232,8233,8234,8230,8231,8232,8233,8234,8230,8231,8232,8233,8234,8230,8231,8232,8233,8234,8230,8231,8232,8233,8234,8230,8231,8232,8233,8234,8230,8231,8232,8233,8234,
8289,8290,8291,8292,8293,8289,8290,8291,8292,8293,8289,8290,8291,8292,8293,8289,8290,8291,8292,8293,8289,8290,8291,8292,8293,8289,8290,8291,8292,8293,8289,8290,8291,8292,8293,8289,8290,8291,8292,8293,8289,8290,8291,8292,8293,8289,8290,8291,8292,8293,
8348,8349,8350,8351,8352,8348,8349,8350,8351,8352,8348,8349,8350,8351,8352,8348,8349,8350,8351,8352,8348,8349,8350,8351,8352,8348,8349,8350,8351,8352,8348,8349,8350,8351,8352,8348,8349,8350,8351,8352,8348,8349,8350,8351,8352,8348,8349,8350,8351,8352,
8171,8172,8173,8174,8175,8171,8172,8173,8174,8175,8171,8172,8173,8174,8175,8171,8172,8173,8174,8175,8171,8172,8173,8174,8175,8171,8172,8173,8174,8175,8171,8172,8173,8174,8175,8171,8172,8173,8174,8175,8171,8172,8173,8174,8175,8171,8172,8173,8174,8175,
8230,8231,8232,8233,8234,8230,8231,8232,8233,8234,8230,8231,8232,8233,8234,8230,8231,8232,8233,8234,8230,8231,8232,8233,8234,8230,8231,8232,8233,8234,8230,8231,8232,8233,8234,8230,8231,8232,8233,8234,8230,8231,8232,8233,8234,8230,8231,8232,8233,8234,
8289,8290,8291,8292,8293,8289,8290,8291,8292,8293,8289,8290,8291,8292,8293,8289,8290,8291,8292,8293,8289,8290,8291,8292,8293,8289,8290,8291,8292,8293,8289,8290,8291,8292,8293,8289,8290,8291,8292,8293,8289,8290,8291,8292,8293,8289,8290,8291,8292,8293,
8348,8349,8350,8351,8352,8348,8349,8350,8351,8352,8348,8349,8350,8351,8352,8348,8349,8350,8351,8352,8348,8349,8350,8351,8352,8348,8349,8350,8351,8352,8348,8349,8350,8351,8352,8348,8349,8350,8351,8352,8348,8349,8350,8351,8352,8348,8349,8350,8351,8352,
8171,8172,8173,8174,8175,8171,8172,8173,8174,8175,8171,8172,8173,8174,8175,8171,8172,8173,8174,8175,8171,8172,8173,8174,8175,8171,8172,8173,8174,8175,8171,8172,8173,8174,8175,8171,8172,8173,8174,8175,8171,8172,8173,8174,8175,8171,8172,8173,8174,8175,
8230,8231,8232,8233,8234,8230,8231,8232,8233,8234,8230,8231,8232,8233,8234,8230,8231,8232,8233,8234,8230,8231,8232,8233,8234,8230,8231,8232,8233,8234,8230,8231,8232,8233,8234,8230,8231,8232,8233,8234,8230,8231,8232,8233,8234,8230,8231,8232,8233,8234,
8289,8290,8291,8292,8293,8289,8290,8291,8292,8293,8289,8290,8291,8292,8293,8289,8290,8291,8292,8293,8289,8290,8291,8292,8293,8289,8290,8291,8292,8293,8289,8290,8291,8292,8293,8289,8290,8291,8292,8293,8289,8290,8291,8292,8293,8289,8290,8291,8292,8293,
8348,8349,8350,8351,8352,8348,8349,8350,8351,8352,8348,8349,8350,8351,8352,8348,8349,8350,8351,8352,8348,8349,8350,8351,8352,8348,8349,8350,8351,8352,8348,8349,8350,8351,8352,8348,8349,8350,8351,8352,8348,8349,8350,8351,8352,8348,8349,8350,8351,8352,
8171,8172,8173,8174,8175,8171,8172,8173,8174,8175,8171,8172,8173,8174,8175,8171,8172,8173,8174,8175,8171,8172,8173,8174,8175,8171,8172,8173,8174,8175,8171,8172,8173,8174,8175,8171,8172,8173,8174,8175,8171,8172,8173,8174,8175,8171,8172,8173,8174,8175,
8230,8231,8232,8233,8234,8230,8231,8232,8233,8234,8230,8231,8232,8233,8234,8230,8231,8232,8233,8234,8230,8231,8232,8233,8234,8230,8231,8232,8233,8234,8230,8231,8232,8233,8234,8230,8231,8232,8233,8234,8230,8231,8232,8233,8234,8230,8231,8232,8233,8234,
8289,8290,8291,8292,8293,8289,8290,8291,8292,8293,8289,8290,8291,8292,8293,8289,8290,8291,8292,8293,8289,8290,8291,8292,8293,8289,8290,8291,8292,8293,8289,8290,8291,8292,8293,8289,8290,8291,8292,8293,8289,8290,8291,8292,8293,8289,8290,8291,8292,8293,
8348,8349,8350,8351,8352,8348,8349,8350,8351,8352,8348,8349,8350,8351,8352,8348,8349,8350,8351,8352,8348,8349,8350,8351,8352,8348,8349,8350,8351,8352,8348,8349,8350,8351,8352,8348,8349,8350,8351,8352,8348,8349,8350,8351,8352,8348,8349,8350,8351,8352,
8171,8172,8173,8174,8175,8171,8172,8173,8174,8175,8171,8172,8173,8174,8175,8171,8172,8173,8174,8175,8171,8172,8173,8174,8175,8171,8172,8173,8174,8175,8171,8172,8173,8174,8175,8171,8172,8173,8174,8175,8171,8172,8173,8174,8175,8171,8172,8173,8174,8175,
8230,8231,8232,8233,8234,8230,8231,8232,8233,8234,8230,8231,8232,8233,8234,8230,8231,8232,8233,8234,8230,8231,8232,8233,8234,8230,8231,8232,8233,8234,8230,8231,8232,8233,8234,8230,8231,8232,8233,8234,8230,8231,8232,8233,8234,8230,8231,8232,8233,8234,
8289,8290,8291,8292,8293,8289,8290,8291,8292,8293,8289,8290,8291,8292,8293,8289,8290,8291,8292,8293,8289,8290,8291,8292,8293,8289,8290,8291,8292,8293,8289,8290,8291,8292,8293,8289,8290,8291,8292,8293,8289,8290,8291,8292,8293,8289,8290,8291,8292,8293,
8348,8349,8350,8351,8352,8348,8349,8350,8351,8352,8348,8349,8350,8351,8352,8348,8349,8350,8351,8352,8348,8349,8350,8351,8352,8348,8349,8350,8351,8352,8348,8349,8350,8351,8352,8348,8349,8350,8351,8352,8348,8349,8350,8351,8352,8348,8349,8350,8351,8352,
8171,8172,8173,8174,8175,8171,8172,8173,8174,8175,8171,8172,8173,8174,8175,8171,8172,8173,8174,8175,8171,8172,8173,8174,8175,8171,8172,8173,8174,8175,8171,8172,8173,8174,8175,8171,8172,8173,8174,8175,8171,8172,8173,8174,8175,8171,8172,8173,8174,8175,
8230,8231,8232,8233,8234,8230,8231,8232,8233,8234,8230,8231,8232,8233,8234,8230,8231,8232,8233,8234,8230,8231,8232,8233,8234,8230,8231,8232,8233,8234,8230,8231,8232,8233,8234,8230,8231,8232,8233,8234,8230,8231,8232,8233,8234,8230,8231,8232,8233,8234,
8289,8290,8291,8292,8293,8289,8290,8291,8292,8293,8289,8290,8291,8292,8293,8289,8290,8291,8292,8293,8289,8290,8291,8292,8293,8289,8290,8291,8292,8293,8289,8290,8291,8292,8293,8289,8290,8291,8292,8293,8289,8290,8291,8292,8293,8289,8290,8291,8292,8293,
8348,8349,8350,8351,8352,8348,8349,8350,8351,8352,8348,8349,8350,8351,8352,8348,8349,8350,8351,8352,8348,8349,8350,8351,8352,8348,8349,8350,8351,8352,8348,8349,8350,8351,8352,8348,8349,8350,8351,8352,8348,8349,8350,8351,8352,8348,8349,8350,8351,8352,
8171,8172,8173,8174,8175,8171,8172,8173,8174,8175,8171,8172,8173,8174,8175,8171,8172,8173,8174,8175,8171,8172,8173,8174,8175,8171,8172,8173,8174,8175,8171,8172,8173,8174,8175,8171,8172,8173,8174,8175,8171,8172,8173,8174,8175,8171,8172,8173,8174,8175,
8230,8231,8232,8233,8234,8230,8231,8232,8233,8234,8230,8231,8232,8233,8234,8230,8231,8232,8233,8234,8230,8231,8232,8233,8234,8230,8231,8232,8233,8234,8230,8231,8232,8233,8234,8230,8231,8232,8233,8234,8230,8231,8232,8233,8234,8230,8231,8232,8233,8234
</data>
  </layer>
  <layer id="8" name="Side_Walk" width="50" height="30">
   <data encoding="csv">
7995,7995,7995,7995,7995,7995,7995,7995,7995,7995,7995,7995,7995,7996,0,0,0,0,0,7994,7995,7995,7995,7995,7995,7995,7995,7995,7995,7995,7996,0,0,0,0,0,7994,7995,7995,7995,7995,7995,7995,7995,7995,7995,7995,7995,7995,7995,
7995,7995,7995,7995,7995,7995,7995,7995,7995,7995,7995,7995,7995,7996,0,0,0,0,0,7994,7995,7995,7995,7995,7995,7995,7995,7995,7995,7995,7996,0,0,0,0,0,7994,7995,7995,7995,7995,7995,7995,7995,7995,7995,7995,7995,7995,7995,
7995,7995,7995,7995,7995,7995,7995,7995,7995,7995,7995,7995,7995,7996,0,0,0,0,0,7994,7995,7995,7995,7995,7995,7995,7995,7995,7995,7995,7996,0,0,0,0,0,7994,7995,7995,7995,7995,7995,7995,7995,7995,7995,7995,7995,7995,7995,
7995,7995,7995,7995,7995,7995,7995,7995,7995,7995,7995,7995,7995,7996,0,0,0,0,0,7994,7995,7995,7995,7995,7995,7995,7995,7995,7995,7995,7996,0,0,0,0,0,7994,7995,7995,7995,7995,7995,7995,7995,7995,7995,7995,7995,7995,7995,
7995,7995,7995,7995,7995,7995,7995,7995,7995,7995,7995,7995,7995,7996,0,0,0,0,0,7994,7995,7995,7995,7995,7995,7995,7995,7995,7995,7995,7996,0,0,0,0,0,7994,7995,7995,7995,7995,7995,7995,7995,7995,7995,7995,7995,7995,7995,
7995,7995,7995,7995,7995,7995,7995,7995,7995,7995,7995,7995,7995,7996,0,0,0,0,0,7994,7995,7995,7995,7995,7995,7995,7995,7995,7995,7995,7996,0,0,0,0,0,7994,7995,7995,7995,7995,7995,7995,7995,7995,7995,7995,7995,7995,7995,
7995,7995,7995,7995,7995,7995,7995,7995,7995,7995,7995,7995,7995,7996,0,0,0,0,0,7994,7995,7995,7995,7995,7995,7995,7995,7995,7995,7995,7996,0,0,0,0,0,7994,7995,7995,7995,7995,7995,7995,7995,7995,7995,7995,7995,7995,7995,
7995,7995,7995,7995,7995,7995,7995,7995,7995,7995,7995,7995,7995,7996,0,0,0,0,0,7994,7995,7995,7995,7995,7995,7995,7995,7995,7995,7995,7996,0,0,0,0,0,7994,7995,7995,7995,7995,7995,7995,7995,7995,7995,7995,7995,7995,7995,
7995,7995,7995,7995,7995,7995,7995,7995,7995,7995,7995,7995,7995,7996,0,0,0,0,0,7994,7995,7995,7995,7995,7995,7995,7995,7995,7995,7995,7996,0,0,0,0,0,7994,7995,7995,7995,7995,7995,7995,7995,7995,7995,7995,7995,7995,7995,
7995,7995,7995,7995,7995,7995,7995,7995,7995,7995,7995,7995,8830,8831,0,0,0,0,0,8824,8825,7995,7995,7995,7995,7995,7995,7995,7995,8830,8831,0,0,0,0,0,8824,8825,7995,7995,7995,7995,7995,7995,7995,7995,7995,7995,7995,7995,
8886,8886,8886,8886,8886,8886,8886,8886,8886,8886,8886,8886,8889,8890,0,0,0,0,0,0,8884,8886,8886,8886,8886,8886,8886,8886,8886,8889,8890,0,0,0,0,0,8883,8884,8887,8887,8887,8887,8887,8887,8887,8887,8887,8887,8887,8887,
8348,8349,8350,8351,8352,8348,8349,8350,8351,8352,8348,8349,8350,8351,8352,8348,8349,8350,8351,8352,8348,8349,8350,8351,8352,8348,8349,0,0,0,0,8349,8350,8351,8352,8348,8349,8350,8351,8352,8348,8349,8350,8351,8352,8348,8349,8350,8351,8352,
8171,8172,8173,8174,8175,8171,8172,8173,8174,8175,8171,8172,8173,8174,8175,8171,8172,8173,8174,8175,8171,8172,8173,8174,8175,8171,8172,8173,8174,8175,8171,8172,8173,8174,8175,8171,8172,8173,8174,8175,8171,8172,8173,8174,8175,8171,8172,8173,8174,8175,
8230,8231,8232,8233,8234,8230,8231,8232,8233,8234,8230,8231,8232,8233,8234,8230,8231,8232,8233,8234,8230,8231,8232,8233,8234,8230,8231,8232,8233,8234,8230,8231,8232,8233,8234,8230,8231,8232,8233,8234,8230,8231,8232,8233,8234,8230,8231,8232,8233,8234,
8289,8290,8291,8292,8293,8289,8290,8291,8292,8293,8289,8290,8291,8292,8293,8289,8290,8291,8292,8293,8289,8290,8291,8292,8293,8289,8290,8291,8292,8293,8289,8290,8291,8292,8293,8289,8290,8291,8292,8293,8289,8290,8291,8292,8293,8289,8290,8291,8292,8293,
8348,8349,8350,8351,8352,8348,8349,8350,8351,8352,8348,8349,8350,8351,8352,8348,8349,8350,8351,8352,8348,8349,8350,8351,8352,8348,8349,8350,8351,8352,8348,8349,8350,8351,8352,8348,8349,8350,8351,8352,8348,8349,8350,8351,8352,8348,8349,8350,8351,8352,
8171,8172,8173,8174,8175,8171,8172,8173,8174,8175,8171,8172,8173,8174,8175,8171,8172,8173,8174,8175,8171,8172,8173,8174,8175,8171,8172,8173,8174,8175,8171,8172,8173,8174,8175,8171,8172,8173,8174,8175,8171,8172,8173,8174,8175,8171,8172,8173,8174,8175,
8230,8231,8232,8233,8234,8230,8231,8232,8233,8234,8230,8231,8232,8233,8234,8230,8231,8232,8233,8234,8230,8231,8232,8233,8234,8230,8231,8232,8233,8234,8230,8231,8232,8233,8234,8230,8231,8232,8233,8234,8230,8231,8232,8233,8234,8230,8231,8232,8233,8234,
8289,8290,8291,8292,8293,8289,8290,8291,8292,8293,8289,8290,8291,8292,8293,8289,8290,8291,8292,8293,8289,8290,8291,8292,8293,8289,8290,8291,8292,8293,8289,8290,8291,8292,8293,8289,8290,8291,8292,8293,8289,8290,8291,8292,8293,8289,8290,8291,8292,8293,
8348,8349,8350,8351,8352,8348,8349,8350,8351,8352,8348,8349,8350,8351,8352,8348,8349,8350,8351,8352,8348,8349,8350,8351,8352,8348,8349,8350,8351,8352,8348,8349,8350,8351,8352,8348,8349,8350,8351,8352,8348,8349,8350,8351,8352,8348,8349,8350,8351,8352,
8171,8172,8173,8174,8175,8171,8172,8173,8174,8175,8171,8172,8173,8174,8175,8171,8172,8173,8174,8175,8171,8172,8173,8174,8175,8171,8172,8173,8174,8175,8171,8172,8173,8174,8175,8171,8172,8173,8174,8175,8171,8172,8173,8174,8175,8171,8172,8173,8174,8175,
7936,7936,7936,7936,7936,7936,7936,7936,7936,7936,7936,7936,7936,7936,7936,7936,7936,7936,7936,7936,7936,7936,7937,0,0,0,0,0,7935,7936,7936,7936,7936,7936,7936,7936,7936,7936,7936,7936,7936,7936,7936,7936,7936,7936,7936,7936,7936,7936,
7995,7995,7995,7995,7995,7995,7995,7995,7995,7995,7995,7995,7995,7995,7995,7995,7995,7995,7995,7995,7995,7995,7996,0,0,0,0,0,7994,7995,7995,7995,7995,7995,7995,7995,7995,7995,7995,7995,7995,7995,7995,7995,7995,7995,7995,7995,7995,7995,
7995,7995,7995,7995,7995,7995,7995,7995,7995,7995,7995,7995,7995,7995,7995,7995,7995,7995,7995,7995,7995,7995,7996,0,0,0,0,0,7994,7995,7995,7995,7995,7995,7995,7995,7995,7995,7995,7995,7995,7995,7995,7995,7995,7995,7995,7995,7995,7995,
7995,7995,7995,7995,7995,7995,7995,7995,7995,7995,7995,7995,7995,7995,7995,7995,7995,7995,7995,7995,7995,7995,7996,0,0,0,0,0,7994,7995,7995,7995,7995,7995,7995,7995,7995,7995,7995,7995,7995,7995,7995,7995,7995,7995,7995,7995,7995,7995,
7995,7995,7995,7995,7995,7995,7995,7995,7995,7995,7995,7995,7995,7995,7995,7995,7995,7995,7995,7995,7995,7995,7996,0,0,0,0,0,7994,7995,7995,7995,7995,7995,7995,7995,7995,7995,7995,7995,7995,7995,7995,7995,7995,7995,7995,7995,7995,7995,
7995,7995,7995,7995,7995,7995,7995,7995,7995,7995,7995,7995,7995,7995,7995,7995,7995,7995,7995,7995,7995,7995,7996,0,0,0,0,0,7994,7995,7995,7995,7995,7995,7995,7995,7995,7995,7995,7995,7995,7995,7995,7995,7995,7995,7995,7995,7995,7995,
7995,7995,7995,7995,7995,7995,7995,7995,7995,7995,7995,7995,7995,7995,7995,7995,7995,7995,7995,7995,7995,7995,7996,0,0,0,0,0,7994,7995,7995,7995,7995,7995,7995,7995,7995,7995,7995,7995,7995,7995,7995,7995,7995,7995,7995,7995,7995,7995,
7995,7995,7995,7995,7995,7995,7995,7995,7995,7995,7995,7995,7995,7995,7995,7995,7995,7995,7995,7995,7995,7995,7996,0,0,0,0,0,7994,7995,7995,7995,7995,7995,7995,7995,7995,7995,7995,7995,7995,7995,7995,7995,7995,7995,7995,7995,7995,7995,
7995,7995,7995,7995,7995,7995,7995,7995,7995,7995,7995,7995,7995,7995,7995,7995,7995,7995,7995,7995,7995,7995,7996,0,0,0,0,0,7994,7995,7995,7995,7995,7995,7995,7995,7995,7995,7995,7995,7995,7995,7995,7995,7995,7995,7995,7995,7995,7995
</data>
  </layer>
 </group>
 <group id="6" name="Structures">
  <layer id="7" name="Buildings" width="50" height="30">
   <data encoding="csv">
0,0,0,0,0,0,0,0,0,0,0,0,0,0,0,0,0,0,0,0,0,0,0,0,0,0,0,0,0,0,0,0,0,0,0,0,0,0,0,0,0,0,0,0,0,0,0,0,0,0,
0,0,0,0,0,0,0,0,0,0,0,0,0,0,0,0,0,0,0,0,0,0,0,0,0,0,0,0,0,0,0,0,0,0,0,0,0,0,0,0,0,0,0,0,0,0,0,0,0,0,
0,0,0,0,0,0,0,0,0,0,0,0,0,0,0,0,0,0,0,0,0,0,0,0,0,0,0,0,0,0,0,0,0,0,0,0,0,0,0,0,0,0,0,0,0,0,0,0,0,0,
0,0,0,0,0,0,0,3173,3174,3175,3176,3235,3236,0,0,0,0,0,0,0,0,0,0,0,0,0,0,0,0,0,0,0,0,0,0,0,0,3235,3236,3173,3174,3175,3176,0,0,0,0,0,0,0,
0,0,0,0,0,0,0,3205,3206,3207,3208,3267,3268,0,0,0,0,0,0,0,0,0,0,0,0,0,0,0,0,0,0,0,0,0,0,0,0,3267,3268,3205,3206,3207,3208,0,0,0,0,0,0,0,
0,0,0,0,0,0,0,3237,3238,3239,3240,3299,3300,0,0,0,0,0,0,0,0,0,0,0,0,0,0,0,0,0,0,0,0,0,0,0,0,3299,3300,3237,3238,3239,3240,0,0,0,0,0,0,0,
0,0,0,0,0,0,0,3269,3270,3271,3272,3331,3332,0,0,0,0,0,0,0,0,0,0,0,0,0,0,0,0,0,0,0,0,0,0,0,0,3331,3332,3269,3270,3271,3272,0,0,0,0,0,0,0,
0,0,0,0,0,0,0,3301,3302,3303,3304,3363,3364,0,0,0,0,0,0,0,0,0,0,0,0,0,0,0,0,0,0,0,0,0,0,0,0,3363,3364,3301,3302,3303,3304,0,0,0,0,0,0,0,
0,0,0,0,0,0,0,0,0,0,0,0,0,0,0,0,0,0,0,0,0,0,0,0,0,0,0,0,0,0,0,0,0,0,0,0,0,0,0,0,0,0,0,0,0,0,0,0,0,0,
0,0,0,0,0,0,0,0,0,0,0,0,0,0,0,0,0,0,0,0,0,0,0,0,0,0,0,0,0,0,0,0,0,0,0,0,0,0,0,0,0,0,0,0,0,0,0,0,0,0,
0,0,0,0,0,0,0,0,0,0,0,0,0,0,0,0,0,0,0,0,0,0,0,0,0,0,0,0,0,0,0,0,0,0,0,0,0,0,0,0,0,0,0,0,0,0,0,0,0,0,
0,0,0,0,0,0,0,0,0,0,0,0,0,0,0,0,0,0,0,0,0,0,0,0,0,0,0,0,0,0,0,0,0,0,0,0,0,0,0,0,0,0,0,0,0,0,0,0,0,0,
0,0,0,0,0,0,0,0,0,0,0,0,0,0,0,0,0,0,0,0,0,0,0,0,0,0,0,0,0,0,0,0,0,0,0,0,0,0,0,0,0,0,0,0,0,0,0,0,0,0,
0,0,0,0,0,0,0,0,0,0,0,0,0,0,0,0,0,0,0,0,0,0,0,0,0,0,0,0,0,0,0,0,0,0,0,0,0,0,0,0,0,0,0,0,0,0,0,0,0,0,
0,0,0,0,0,0,0,0,0,0,0,0,0,0,0,0,0,0,0,0,0,0,0,0,0,0,0,0,0,0,0,0,0,0,0,0,0,0,0,0,0,0,0,0,0,0,0,0,0,0,
0,0,0,0,0,0,0,0,0,0,0,0,0,0,0,0,0,0,0,0,0,0,0,0,0,0,0,0,0,0,0,0,0,0,0,0,0,0,0,0,0,0,0,0,0,0,0,0,0,0,
0,0,0,0,0,0,0,0,0,0,0,0,0,0,0,0,0,0,0,0,0,0,0,0,0,0,0,0,0,0,0,0,0,0,0,0,0,0,0,0,0,0,0,0,0,0,0,0,0,0,
0,0,0,0,0,0,0,0,0,0,0,0,0,0,0,0,0,0,0,0,0,0,0,0,0,0,0,0,0,0,0,0,0,0,0,0,0,0,0,0,0,0,0,0,0,0,0,0,0,0,
0,0,0,0,0,0,0,0,0,0,0,0,0,0,0,0,0,0,0,0,0,0,0,0,0,0,0,0,0,0,0,0,0,0,0,0,0,0,0,0,0,0,0,0,0,0,0,0,0,0,
0,0,0,0,0,0,0,0,0,0,0,0,0,0,0,0,0,0,0,0,0,0,0,0,0,0,0,0,0,0,0,0,0,0,0,0,0,0,0,0,0,0,0,0,0,0,0,0,0,0,
0,0,0,0,0,0,0,0,0,0,0,0,0,0,0,0,0,0,0,0,0,0,0,0,0,0,0,0,0,0,0,0,0,0,0,0,0,0,0,0,0,0,0,0,0,0,0,0,0,0,
0,0,0,0,0,0,0,0,0,0,0,0,0,0,0,0,0,0,0,0,0,0,0,0,0,0,0,0,0,0,0,0,0,0,0,0,0,0,0,0,0,0,0,0,0,0,0,0,0,0,
0,0,0,0,0,0,0,0,0,0,0,0,0,0,0,0,0,0,0,0,0,0,0,0,0,0,0,0,0,0,0,0,0,0,0,0,0,0,0,0,0,0,0,0,0,0,0,0,0,0,
0,0,0,0,0,0,0,0,0,0,0,0,0,0,0,0,0,0,0,0,0,0,0,0,0,0,0,0,0,0,0,0,0,0,0,0,0,0,0,0,0,0,0,0,0,0,0,0,0,0,
0,0,0,0,0,0,0,0,0,0,0,0,0,0,0,0,0,0,0,0,0,0,0,0,0,0,0,0,0,0,0,0,0,0,0,0,0,0,0,0,0,0,0,0,0,0,0,0,0,0,
0,0,0,0,0,0,0,0,0,0,0,0,0,0,0,0,0,0,0,0,0,0,0,0,0,0,0,0,0,0,0,0,0,0,0,0,0,0,0,0,0,0,0,0,0,0,0,0,0,0,
0,0,0,0,0,0,0,0,0,0,0,0,0,0,0,0,0,0,0,0,0,0,0,0,0,0,0,0,0,0,0,0,0,0,0,0,0,0,0,0,0,0,0,0,0,0,0,0,0,0,
0,0,0,0,0,0,0,0,0,0,0,0,0,0,0,0,0,0,0,0,0,0,0,0,0,0,0,0,0,0,0,0,0,0,0,0,0,0,0,0,0,0,0,0,0,0,0,0,0,0,
0,0,0,0,0,0,0,0,0,0,0,0,0,0,0,0,0,0,0,0,0,0,0,0,0,0,0,0,0,0,0,0,0,0,0,0,0,0,0,0,0,0,0,0,0,0,0,0,0,0,
0,0,0,0,0,0,0,0,0,0,0,0,0,0,0,0,0,0,0,0,0,0,0,0,0,0,0,0,0,0,0,0,0,0,0,0,0,0,0,0,0,0,0,0,0,0,0,0,0,0
</data>
  </layer>
  <layer id="10" name="Vehicles" width="50" height="30">
   <data encoding="csv">
0,0,0,0,0,0,0,0,0,0,0,0,0,0,0,0,0,0,0,0,0,0,0,0,0,0,0,0,0,0,0,0,0,0,0,0,0,0,0,0,0,0,0,0,0,0,0,0,0,0,
0,0,0,0,0,0,0,0,0,0,0,0,0,0,0,0,0,0,0,0,0,0,0,0,0,0,0,0,0,0,0,0,0,0,0,0,0,0,0,0,0,0,0,0,0,0,0,0,0,0,
0,0,0,0,0,0,0,0,0,0,0,0,0,0,0,0,0,0,0,0,0,0,0,0,0,0,0,0,0,0,0,0,0,0,0,0,0,0,0,0,0,0,0,0,0,0,0,0,0,0,
0,0,0,0,0,0,0,0,0,0,0,0,0,0,0,0,0,0,0,0,0,0,0,0,0,0,0,0,0,0,0,0,0,0,0,0,0,0,0,0,0,0,0,0,0,0,0,0,0,0,
0,0,0,0,0,0,0,0,0,0,0,0,0,0,0,0,0,0,0,0,0,0,0,0,0,0,0,0,0,0,0,0,0,0,0,0,0,0,0,0,0,0,0,0,0,0,0,0,0,0,
0,0,0,0,0,0,0,0,0,0,0,0,0,0,0,0,0,0,0,0,0,0,0,0,0,0,0,0,0,0,0,0,0,0,0,0,0,0,0,0,0,0,0,0,0,0,0,0,0,0,
0,0,0,0,0,0,0,0,0,0,0,0,0,0,0,0,0,0,0,0,0,0,0,0,0,0,0,0,0,0,0,0,0,0,0,0,0,0,0,0,0,0,0,0,0,0,0,0,0,0,
0,0,0,0,0,0,0,0,0,0,0,0,0,0,0,0,0,0,0,0,0,0,0,0,0,0,0,0,0,0,0,0,0,0,0,0,0,0,0,0,0,0,0,0,0,0,0,0,0,0,
0,0,0,0,0,0,0,0,0,0,0,0,0,0,0,0,0,0,0,0,0,0,0,0,0,0,0,0,0,0,0,0,0,0,0,0,0,0,0,0,0,0,0,0,0,0,0,0,0,0,
0,0,0,0,0,0,0,0,0,0,0,0,0,0,0,0,0,0,0,0,0,0,0,0,0,0,0,0,0,0,0,0,0,0,0,0,0,0,0,0,0,0,0,0,0,0,0,0,0,0,
0,0,0,0,0,0,0,0,0,0,0,0,0,0,0,0,0,0,0,0,0,0,0,0,0,0,0,0,0,0,0,0,0,0,0,0,0,0,0,0,0,0,0,0,0,0,0,0,0,0,
0,0,0,0,0,0,0,0,0,0,0,0,0,0,0,0,0,0,0,0,0,0,0,0,0,0,0,0,0,0,0,0,0,0,0,0,0,0,0,0,0,0,0,0,0,0,0,0,0,0,
0,0,0,0,0,0,0,0,0,0,0,0,0,0,0,0,0,0,0,0,0,0,0,0,0,0,0,0,0,0,0,0,0,0,0,0,0,0,0,0,0,0,0,0,0,0,0,0,0,0,
0,0,0,0,0,0,0,0,0,0,0,0,0,0,0,0,0,0,0,0,0,0,0,0,0,0,0,0,0,0,0,0,0,0,0,0,0,0,0,0,0,0,0,0,0,0,0,0,0,0,
0,0,0,0,0,0,0,0,0,0,0,0,0,0,0,0,0,0,0,0,0,0,0,0,0,0,0,0,0,0,0,0,0,0,0,0,0,0,0,0,0,0,0,0,0,0,0,0,0,0,
0,0,0,0,0,0,0,0,0,0,0,0,0,0,0,0,0,0,0,0,0,0,0,0,0,0,0,0,0,0,0,0,0,0,0,0,0,0,0,0,0,0,0,0,0,0,0,0,0,0,
0,0,0,0,0,0,0,0,0,0,0,0,0,0,0,0,0,0,0,0,0,0,0,0,0,0,0,0,0,0,0,0,0,0,0,0,0,0,0,0,0,0,0,0,0,0,0,0,0,0,
0,0,0,0,0,0,0,0,0,0,0,0,0,0,0,0,0,0,0,0,0,0,0,0,0,0,0,0,0,0,0,0,0,0,0,0,0,0,0,0,0,0,0,0,0,0,0,0,0,0,
0,0,0,0,0,0,0,0,0,0,0,0,0,0,0,0,0,0,0,0,0,0,0,0,0,0,0,0,0,0,0,0,0,0,0,0,0,0,0,0,0,0,0,0,0,0,0,0,0,0,
0,0,0,0,0,0,0,0,0,0,0,0,0,0,0,0,0,0,0,0,0,0,0,0,0,0,0,0,0,0,0,0,0,0,0,0,0,0,0,0,0,0,0,0,0,0,0,0,0,0,
0,0,0,0,0,0,0,0,0,0,0,0,0,0,0,0,0,0,0,0,0,0,0,0,0,0,0,0,0,0,0,0,0,0,0,0,0,0,0,0,0,0,0,0,0,0,0,0,0,0,
0,0,0,0,0,0,0,0,0,0,0,0,0,0,0,0,0,0,0,0,0,0,0,0,0,0,0,0,0,0,0,0,0,0,0,0,0,0,0,0,0,0,0,0,0,0,0,0,0,0,
0,0,0,0,0,0,0,0,0,0,0,0,0,0,0,0,0,0,0,0,0,0,0,0,0,0,0,0,0,0,0,0,0,0,0,0,0,0,0,0,0,0,0,0,0,0,0,0,0,0,
0,0,0,0,0,0,0,0,0,0,0,0,0,0,0,0,0,0,0,0,0,0,0,0,0,0,0,0,0,0,0,0,0,0,0,0,0,0,0,0,0,0,0,0,0,0,0,0,0,0,
0,0,0,0,0,0,0,0,0,0,0,0,0,0,0,0,0,0,0,0,0,0,0,0,0,0,0,0,0,0,0,0,0,0,0,0,0,0,0,0,0,0,0,0,0,0,0,0,0,0,
0,0,0,0,0,0,0,0,0,0,0,0,0,0,0,0,0,0,0,0,0,0,0,0,0,0,0,0,0,0,0,0,0,0,0,0,0,0,0,0,0,0,0,0,0,0,0,0,0,0,
0,0,0,0,0,0,0,0,0,0,0,0,0,0,0,0,0,0,0,0,0,0,0,0,0,0,0,0,0,0,0,0,0,0,0,0,0,0,0,0,0,0,0,0,0,0,0,0,0,0,
0,0,0,0,0,0,0,0,0,0,0,0,0,0,0,0,0,0,0,0,0,0,0,0,0,0,0,0,0,0,0,0,0,0,0,0,0,0,0,0,0,0,0,0,0,0,0,0,0,0,
0,0,0,0,0,0,0,0,0,0,0,0,0,0,0,0,0,0,0,0,0,0,0,0,0,0,0,0,0,0,0,0,0,0,0,0,0,0,0,0,0,0,0,0,0,0,0,0,0,0,
0,0,0,0,0,0,0,0,0,0,0,0,0,0,0,0,0,0,0,0,0,0,0,0,0,0,0,0,0,0,0,0,0,0,0,0,0,0,0,0,0,0,0,0,0,0,0,0,0,0
</data>
  </layer>
  <layer id="9" name="Props" width="50" height="30">
   <data encoding="csv">
0,0,0,0,0,0,0,0,0,0,0,0,0,0,0,0,0,0,0,0,0,0,0,0,0,0,0,0,0,0,0,0,0,0,0,0,0,0,0,0,0,0,0,0,0,0,0,0,0,0,
0,0,0,0,0,0,0,0,0,0,0,0,0,0,0,0,0,0,0,0,0,0,0,0,0,0,0,0,0,0,0,0,0,0,0,0,0,0,0,0,0,0,0,0,0,0,0,0,0,0,
0,0,0,0,0,0,0,0,0,0,0,0,0,0,0,0,0,0,0,0,0,0,0,0,0,0,0,0,0,0,0,0,0,0,0,0,0,0,0,0,0,0,0,0,0,0,0,0,0,0,
0,0,1689,1690,1691,0,0,0,0,0,0,0,0,0,0,0,0,0,0,0,0,0,0,0,0,0,0,0,0,0,0,0,0,0,0,0,0,0,0,0,0,0,0,0,0,1689,1690,1691,0,0,
0,0,1721,1722,1723,0,0,0,0,0,0,0,0,0,0,0,0,0,0,0,0,0,0,0,0,0,0,0,0,0,0,0,0,0,0,0,0,0,0,0,0,0,0,0,0,1721,1722,1723,0,0,
0,0,1753,1754,1755,0,0,0,0,0,0,0,0,0,0,0,0,0,0,0,0,0,0,0,0,0,0,0,0,0,0,0,0,0,0,0,0,0,0,0,0,0,0,0,0,1753,1754,1755,0,0,
0,0,1785,1786,1787,0,0,0,0,0,0,0,0,0,0,0,0,0,0,0,0,0,0,0,0,0,0,0,0,0,0,0,0,0,0,0,0,0,0,0,0,0,0,0,0,1785,1786,1787,0,0,
0,0,1817,1818,1819,0,0,0,0,0,0,0,0,0,0,0,0,0,0,0,0,0,0,0,0,0,0,0,0,0,0,0,0,0,0,0,0,0,0,0,0,0,0,0,0,1817,1818,1819,0,0,
0,0,0,0,0,0,0,0,0,0,0,0,0,0,0,0,0,0,0,0,0,0,0,0,0,0,0,0,0,0,0,0,0,0,0,0,0,0,0,0,0,0,0,0,0,0,0,0,0,0,
0,0,0,0,0,0,0,0,0,0,0,0,0,0,0,0,0,0,0,0,0,0,0,0,0,0,0,0,0,0,0,0,0,0,0,0,0,0,0,0,0,0,0,0,0,0,0,0,0,0,
0,0,0,0,0,0,0,0,0,0,0,0,0,0,0,0,0,0,0,0,0,0,0,0,0,0,0,0,0,0,0,0,0,0,0,0,0,0,0,0,0,0,0,0,0,0,0,0,0,0,
0,0,0,0,0,0,0,0,0,0,0,0,0,0,0,0,0,0,0,0,0,0,0,0,0,0,0,0,0,0,0,0,0,0,0,0,0,0,0,0,0,0,0,0,0,0,0,0,0,0,
0,0,0,0,0,0,0,0,0,0,0,0,0,0,0,0,0,0,0,0,0,0,0,0,0,0,0,0,0,0,0,0,0,0,0,0,0,0,0,0,0,0,0,0,0,0,0,0,0,0,
0,0,0,0,0,0,0,0,0,0,0,0,0,0,0,0,0,0,0,0,0,0,0,0,0,0,0,0,0,0,0,0,0,0,0,0,0,0,0,0,0,0,0,0,0,0,0,0,0,0,
0,0,0,0,0,0,0,0,0,0,0,0,0,0,0,0,0,0,0,0,0,0,0,0,0,0,0,0,0,0,0,0,0,0,0,0,0,0,0,0,0,0,0,0,0,0,0,0,0,0,
0,0,0,0,0,0,0,0,0,0,0,0,0,0,0,0,0,0,0,0,0,0,0,0,0,0,0,0,0,0,0,0,0,0,0,0,0,0,0,0,0,0,0,0,0,0,0,0,0,0,
0,0,0,0,0,0,0,0,0,0,0,0,0,0,0,0,0,0,0,0,0,0,0,0,0,0,0,0,0,0,0,0,0,0,0,0,0,0,0,0,0,0,0,0,0,0,0,0,0,0,
0,0,0,0,0,0,0,0,0,0,0,0,0,0,0,0,0,0,0,0,0,0,0,0,0,0,0,0,0,0,0,0,0,0,0,0,0,0,0,0,0,0,0,0,0,0,0,0,0,0,
0,0,0,0,0,0,0,0,0,0,0,0,0,0,0,0,0,0,0,0,0,0,0,0,0,0,0,0,0,0,0,0,0,0,0,0,0,0,0,0,0,0,0,0,0,0,0,0,0,0,
0,0,0,0,0,0,0,0,0,0,0,0,0,0,0,0,0,0,0,0,0,757,0,0,0,0,0,0,0,757,0,0,0,0,0,0,0,0,0,0,0,0,0,0,0,0,0,0,0,0,
0,0,0,0,0,0,0,0,0,0,0,0,0,0,0,0,0,0,0,0,0,789,0,0,0,0,0,0,0,789,1395,1396,0,0,0,0,0,0,0,0,0,0,0,0,0,0,0,0,0,0,
0,0,0,0,0,0,0,0,0,0,0,0,0,0,0,0,0,0,0,0,0,821,0,0,0,0,0,0,0,821,1427,1428,0,0,0,0,0,0,0,0,0,0,0,0,0,0,0,0,0,0,
0,0,0,0,0,0,0,0,0,0,0,0,0,0,0,0,0,0,0,0,0,853,0,0,0,0,0,0,0,853,1459,1460,1398,0,0,0,0,0,0,0,0,0,0,0,0,0,0,0,0,0,
0,0,0,0,1149,1150,1151,0,0,0,1689,1690,1691,0,0,0,1689,1690,1691,0,0,0,0,0,0,0,0,0,0,0,0,0,1689,1690,1691,0,0,0,1689,1690,1691,0,0,0,0,0,0,0,0,0,
0,0,0,0,1181,1182,1183,0,0,0,1721,1722,1723,0,0,0,1721,1722,1723,0,0,0,0,0,0,0,0,0,0,0,0,0,1721,1722,1723,0,0,0,1721,1722,1723,0,0,0,886,887,888,0,0,0,
0,0,0,0,1213,1214,1215,0,0,0,1753,1754,1755,822,823,824,1753,1754,1755,0,0,0,0,0,0,0,0,0,0,0,0,0,1753,1754,1755,822,823,824,1753,1754,1755,0,0,0,918,919,920,18323,0,0,
0,0,0,0,1245,1246,1247,0,0,0,1785,1786,1787,854,855,856,1785,1786,1787,0,0,0,0,0,0,0,0,0,0,0,0,0,1785,1786,1787,854,855,856,1785,1786,1787,0,0,0,950,951,952,18380,0,0,
0,0,0,0,1277,1278,1279,0,0,0,1817,1818,1819,0,0,0,1817,1818,1819,0,0,0,0,0,0,0,0,0,0,0,0,0,1817,1818,1819,0,0,0,1817,1818,1819,0,0,0,0,0,0,0,0,0,
0,0,0,0,0,0,0,0,0,0,0,0,0,0,0,0,0,0,0,0,0,0,0,0,0,0,0,0,0,0,0,0,0,0,0,0,0,0,0,0,0,0,0,0,0,0,0,0,0,0,
0,0,0,0,0,0,0,0,0,0,0,0,0,0,0,0,0,0,0,0,0,0,0,0,0,0,0,0,0,0,0,0,0,0,0,0,0,0,0,0,0,0,0,0,0,0,0,0,0,0
</data>
  </layer>
  <layer id="11" name="NPC" width="50" height="30">
   <data encoding="csv">
0,0,0,0,0,0,0,0,0,0,0,0,0,0,0,0,0,0,0,0,0,0,0,0,0,0,0,0,0,0,0,0,0,0,0,0,0,0,0,0,0,0,0,0,0,0,0,0,0,0,
0,0,0,0,0,0,0,0,0,0,0,0,0,0,0,0,0,0,0,0,0,0,0,0,0,0,0,0,0,0,0,0,0,0,0,0,0,0,0,0,0,0,0,0,0,0,0,0,0,0,
0,0,0,0,0,0,0,0,0,0,0,0,0,0,0,0,0,0,0,0,0,0,0,0,0,0,0,0,0,0,0,0,0,0,0,0,0,0,0,0,0,0,0,0,0,0,0,0,0,0,
0,0,0,0,0,0,0,0,0,0,0,0,0,0,0,0,0,0,0,0,0,0,0,0,0,0,0,0,0,0,0,0,0,0,0,0,0,0,0,0,0,0,0,0,0,0,0,0,0,0,
0,0,0,0,0,0,0,0,0,0,0,0,0,0,0,0,0,0,0,0,0,0,0,0,0,0,0,0,0,0,0,0,0,0,0,0,0,0,0,0,0,0,0,0,0,0,0,0,0,0,
0,0,0,0,0,0,0,0,0,0,0,0,0,0,0,0,0,0,0,0,0,0,0,0,0,0,0,0,0,0,0,0,0,0,0,0,0,0,0,0,0,0,0,0,0,0,0,0,0,0,
0,0,0,0,0,0,0,0,0,0,0,0,0,0,0,0,0,0,0,0,0,0,0,0,0,0,0,0,0,0,0,0,0,0,0,0,0,0,0,0,0,0,0,0,0,0,0,0,0,0,
0,0,0,0,0,0,0,0,0,0,0,0,0,0,0,0,0,0,0,0,0,0,0,0,0,0,0,0,0,0,0,0,0,0,0,0,0,0,0,0,0,0,0,0,0,0,0,0,0,0,
0,0,0,0,0,0,0,0,0,0,0,0,0,0,0,0,0,0,0,0,0,0,0,0,0,0,0,0,0,0,0,0,0,0,0,0,0,0,0,0,0,0,0,0,0,0,0,0,0,0,
0,0,0,0,0,0,0,0,0,0,0,0,0,0,0,0,0,0,0,0,0,0,0,0,0,0,0,0,0,0,0,0,0,0,0,0,0,0,0,0,0,0,0,0,0,0,0,0,0,0,
0,0,0,0,0,0,0,0,0,0,0,0,0,0,0,0,0,0,0,0,0,0,0,0,0,0,0,0,0,0,0,0,0,0,0,0,0,0,0,0,0,0,0,0,0,0,0,0,0,0,
0,0,0,0,0,0,0,0,0,0,0,0,0,0,0,0,0,0,0,0,0,0,0,0,0,0,0,0,0,0,0,0,0,0,0,0,0,0,0,0,0,0,0,0,0,0,0,0,0,0,
0,0,0,0,0,0,0,0,0,0,0,0,0,0,0,0,0,0,0,0,0,0,0,0,0,0,0,0,0,0,0,0,0,0,0,0,0,0,0,0,0,0,0,0,0,0,0,0,0,0,
0,0,0,0,0,0,0,0,0,0,0,0,0,0,0,0,0,0,0,0,0,0,0,0,0,0,0,0,0,0,0,0,0,0,0,0,0,0,0,0,0,0,0,0,0,0,0,0,0,0,
0,0,0,0,0,0,0,0,0,0,0,0,0,0,0,0,0,0,0,0,0,0,0,0,0,0,0,0,0,0,0,0,0,0,0,0,0,0,0,0,0,0,0,0,0,0,0,0,0,0,
0,0,0,0,0,0,0,0,0,0,0,0,0,0,0,0,0,0,0,0,0,0,0,0,0,0,0,0,0,0,0,0,0,0,0,0,0,0,0,0,0,0,0,0,0,0,0,0,0,0,
0,0,0,0,0,0,0,0,0,0,0,0,0,0,0,0,0,0,0,0,0,0,0,0,0,0,0,0,0,0,0,0,0,0,0,0,0,0,0,0,0,0,0,0,0,0,0,0,0,0,
0,0,0,0,0,0,0,0,0,0,0,0,0,0,0,0,0,0,0,0,0,0,0,0,0,0,0,0,0,0,0,0,0,0,0,0,0,0,0,0,0,0,0,0,0,0,0,0,0,0,
0,0,0,0,0,0,0,0,0,0,0,0,0,0,0,0,0,0,0,0,0,0,0,0,0,0,0,0,0,0,0,0,0,0,0,0,0,0,0,0,0,0,0,0,0,0,0,0,0,0,
0,0,0,0,0,0,0,0,0,0,0,0,0,0,0,0,0,0,0,0,0,0,0,0,0,0,0,0,0,0,0,0,0,0,0,0,0,0,0,0,0,0,0,0,0,0,0,0,0,0,
0,0,0,0,0,0,0,0,0,0,0,0,0,0,0,0,0,0,0,0,0,0,0,0,0,0,0,0,0,0,0,0,0,0,0,0,0,0,0,0,0,0,0,0,0,0,0,0,0,0,
0,0,0,0,0,0,0,0,0,0,0,0,0,0,0,0,0,0,0,0,0,0,0,0,0,0,0,0,0,0,0,0,0,0,0,0,0,0,0,0,0,0,0,0,0,0,0,0,0,0,
0,0,0,0,0,0,0,0,0,0,0,0,0,0,0,0,0,0,0,0,0,0,0,0,0,0,0,0,0,0,0,0,0,0,0,0,0,0,0,0,0,0,0,0,0,0,0,0,0,0,
0,0,0,0,0,0,0,0,0,0,0,0,0,0,0,0,0,0,0,0,0,0,0,0,0,0,0,0,0,0,0,0,0,0,0,0,0,0,0,0,0,0,0,0,0,0,0,0,0,0,
0,0,0,0,0,0,0,0,0,0,0,0,0,0,0,0,0,0,0,0,0,0,0,0,0,0,0,0,0,0,0,0,0,0,0,0,0,0,0,0,0,0,0,0,0,0,0,0,0,0,
0,0,0,0,0,0,0,0,0,0,0,0,0,0,15986,0,0,0,0,0,0,0,0,0,0,0,0,0,0,0,0,0,0,0,0,0,0,0,0,0,0,0,0,0,0,0,0,0,0,0,
0,0,0,0,0,0,0,0,0,0,15422,15423,15424,0,16043,0,0,0,0,0,0,0,0,0,0,0,0,0,0,0,0,0,0,0,0,0,0,0,0,0,0,0,0,0,0,0,0,0,0,0,
0,0,0,0,0,0,0,0,0,0,15494,15495,15496,0,0,0,0,0,0,0,0,0,0,0,0,0,0,0,0,0,0,0,0,0,0,0,0,0,0,0,0,0,0,0,0,0,0,0,0,0,
0,0,0,0,0,0,0,0,0,0,0,0,0,0,0,0,0,0,0,0,0,0,0,0,0,0,0,0,0,0,0,0,0,0,0,0,0,0,0,0,0,0,0,0,0,0,0,0,0,0,
0,0,0,0,0,0,0,0,0,0,0,0,0,0,0,0,0,0,0,0,0,0,0,0,0,0,0,0,0,0,0,0,0,0,0,0,0,0,0,0,0,0,0,0,0,0,0,0,0,0
</data>
  </layer>
 </group>
</map>
